;FLAVOR:Marlin
;TIME:5957
;Filament used: 3.93025m
;Layer height: 0.2
;MINX:86
;MINY:85.5
;MINZ:0.2
;MAXX:149
;MAXY:149.5
;MAXZ:18
;TARGET_MACHINE.NAME:Creality Ender-3
;Generated with Cura_SteamEngine 5.12.0
M140 S60
M105
M190 S60
M104 S215
M105
M109 S215
; Ender 3 Custom Start G-code
G92 E0 ; Reset Extruder
G28 ; Home all axes
G1 Z2.0 F3000 ; Move Z Axis up little to prevent scratching of Heat Bed
G1 X0.1 Y20 Z0.3 F5000.0 ; Move to start position
G1 X0.1 Y200.0 Z0.3 F1500.0 E15 ; Draw the first line
G1 X0.4 Y200.0 Z0.3 F5000.0 ; Move to side a little
G1 X0.4 Y20 Z0.3 F1500.0 E30 ; Draw the second line
G92 E0 ; Reset Extruder
G1 Z2.0 F3000 ; Move Z Axis up little to prevent scratching of Heat Bed
G1 X5 Y20 Z0.3 F5000.0 ; Move over to prevent blob squish
M82 ;absolute extrusion mode
G92 E0
G92 E0
G1 F2700 E-5
;LAYER_COUNT:90
;LAYER:0
M107
G0 F6000 X89.469 Y88.501 Z0.2
;TYPE:SKIRT
G1 F2700 E0
G1 F1200 X90.179 Y87.887 E0.03122
G1 X90.998 Y87.297 E0.06479
G1 X91.837 Y86.801 E0.09721
G1 X92.651 Y86.41 E0.12724
G1 X93.628 Y86.042 E0.16197
G1 X94.532 Y85.792 E0.19316
G1 X95.534 Y85.609 E0.22704
G1 X96.705 Y85.513 E0.26612
G1 X97.312 Y85.5 E0.28631
G1 X137.304 Y85.5 E1.61645
G1 X138.184 Y85.513 E1.64573
G1 X139.156 Y85.572 E1.67811
G1 X140.119 Y85.718 E1.71051
G1 X141.066 Y85.949 E1.74293
G1 X141.954 Y86.249 E1.77411
G1 X142.846 Y86.639 E1.80648
G1 X143.729 Y87.126 E1.84002
G1 X144.48 Y87.628 E1.87007
G1 X145.295 Y88.286 E1.90491
G1 X145.993 Y88.964 E1.93727
G1 X146.629 Y89.701 E1.96965
G1 X147.199 Y90.491 E2.00205
G1 X147.661 Y91.267 E2.03209
G1 X148.115 Y92.209 E2.06687
G1 X148.444 Y93.087 E2.09805
G1 X148.713 Y94.059 E2.1316
G1 X148.89 Y95.025 E2.16426
G1 X148.985 Y96.155 E2.20198
G1 X149 Y96.83 E2.22444
G1 X148.999 Y137.916 E3.59096
G1 X148.987 Y138.677 E3.61628
G1 X148.929 Y139.65 E3.6487
G1 X148.783 Y140.613 E3.68109
G1 X148.552 Y141.56 E3.71351
G1 X148.239 Y142.482 E3.7459
G1 X147.847 Y143.373 E3.77827
G1 X147.395 Y144.195 E3.80947
G1 X146.833 Y145.033 E3.84303
G1 X146.243 Y145.763 E3.87425
G1 X145.54 Y146.489 E3.90786
G1 X144.804 Y147.125 E3.94022
G1 X144.014 Y147.695 E3.97262
G1 X143.238 Y148.158 E4.00267
G1 X142.298 Y148.611 E4.03738
G1 X141.385 Y148.953 E4.0698
G1 X140.447 Y149.212 E4.10217
G1 X139.481 Y149.389 E4.13483
G1 X138.345 Y149.485 E4.17275
G1 X137.67 Y149.5 E4.19521
G1 X97.549 Y149.499 E5.52964
G1 X96.816 Y149.487 E5.55402
G1 X95.844 Y149.428 E5.58641
G1 X94.881 Y149.282 E5.61881
G1 X93.934 Y149.051 E5.65123
G1 X93.046 Y148.751 E5.6824
G1 X92.154 Y148.361 E5.71478
G1 X91.271 Y147.874 E5.74832
G1 X90.52 Y147.372 E5.77837
G1 X89.705 Y146.714 E5.8132
G1 X89.007 Y146.036 E5.84557
G1 X88.371 Y145.299 E5.87795
G1 X87.801 Y144.509 E5.91035
G1 X87.339 Y143.733 E5.94039
G1 X86.885 Y142.791 E5.97517
G1 X86.556 Y141.913 E6.00635
G1 X86.287 Y140.94 E6.03993
G1 X86.11 Y139.973 E6.07262
G1 X86.014 Y138.808 E6.1115
G1 X86 Y138.158 E6.13313
G1 X86.001 Y97.009 E7.50175
G1 X86.013 Y96.308 E7.52507
G1 X86.073 Y95.335 E7.55749
G1 X86.22 Y94.374 E7.58983
G1 X86.451 Y93.426 E7.62228
G1 X86.753 Y92.537 E7.65351
G1 X87.16 Y91.615 E7.68703
G1 X87.631 Y90.763 E7.71941
G1 X88.176 Y89.954 E7.75185
G1 X88.767 Y89.226 E7.78304
G1 X89.469 Y88.501 E7.8166
G0 F6000 X89.731 Y88.804
G1 F1200 X90.441 Y88.19 E7.84782
G1 X91.202 Y87.641 E7.87903
G1 X92.01 Y87.162 E7.91028
G1 X92.824 Y86.771 E7.94031
G1 X93.735 Y86.428 E7.97269
G1 X94.639 Y86.178 E8.00388
G1 X95.567 Y86.008 E8.03526
G1 X96.714 Y85.913 E8.07354
G1 X97.321 Y85.9 E8.09374
G1 X137.298 Y85.9 E9.42338
G1 X138.16 Y85.912 E9.45205
G1 X139.097 Y85.968 E9.48327
G1 X140.025 Y86.107 E9.51448
G1 X140.938 Y86.328 E9.54572
G1 X141.794 Y86.616 E9.57576
G1 X142.686 Y87.006 E9.60814
G1 X143.507 Y87.459 E9.63933
G1 X144.258 Y87.961 E9.66937
G1 X145.017 Y88.573 E9.7018
G1 X145.691 Y89.226 E9.73301
G1 X146.305 Y89.935 E9.76421
G1 X146.855 Y90.696 E9.79544
G1 X147.317 Y91.472 E9.82548
G1 X147.74 Y92.349 E9.85786
G1 X148.069 Y93.227 E9.88905
G1 X148.32 Y94.132 E9.92028
G1 X148.491 Y95.059 E9.95164
G1 X148.586 Y96.189 E9.98935
G1 X148.6 Y96.83 E10.01068
G1 X148.599 Y137.91 E11.377
G1 X148.588 Y138.654 E11.40175
G1 X148.533 Y139.591 E11.43297
G1 X148.394 Y140.519 E11.46418
G1 X148.173 Y141.432 E11.49542
G1 X147.873 Y142.321 E11.52663
G1 X147.496 Y143.18 E11.55783
G1 X147.044 Y144.002 E11.58903
G1 X146.521 Y144.782 E11.62027
G1 X145.955 Y145.485 E11.65029
G1 X145.278 Y146.187 E11.68272
G1 X144.57 Y146.801 E11.71389
G1 X143.809 Y147.351 E11.74512
G1 X143.033 Y147.814 E11.77518
G1 X142.157 Y148.237 E11.80753
G1 X141.278 Y148.568 E11.83877
G1 X140.374 Y148.819 E11.86998
G1 X139.447 Y148.99 E11.90133
G1 X138.311 Y149.086 E11.93925
G1 X137.67 Y149.1 E11.96057
G1 X97.555 Y149.099 E13.2948
G1 X96.84 Y149.088 E13.31859
G1 X95.903 Y149.032 E13.34981
G1 X94.975 Y148.893 E13.38102
G1 X94.062 Y148.672 E13.41226
G1 X93.206 Y148.384 E13.4423
G1 X92.314 Y147.994 E13.47468
G1 X91.493 Y147.541 E13.50587
G1 X90.742 Y147.039 E13.53591
G1 X89.983 Y146.427 E13.56834
G1 X89.309 Y145.774 E13.59955
G1 X88.695 Y145.065 E13.63075
G1 X88.145 Y144.304 E13.66198
G1 X87.683 Y143.528 E13.69201
G1 X87.26 Y142.651 E13.7244
G1 X86.931 Y141.773 E13.75558
G1 X86.68 Y140.868 E13.78682
G1 X86.509 Y139.94 E13.81821
G1 X86.413 Y138.775 E13.85709
G1 X86.4 Y138.158 E13.87761
G1 X86.401 Y97.015 E15.24603
G1 X86.412 Y96.332 E15.26875
G1 X86.469 Y95.395 E15.29997
G1 X86.609 Y94.468 E15.33116
G1 X86.83 Y93.555 E15.3624
G1 X87.132 Y92.666 E15.39363
G1 X87.51 Y91.808 E15.42481
G1 X87.963 Y90.986 E15.45603
G1 X88.487 Y90.206 E15.48728
G1 X89.078 Y89.478 E15.51847
G1 X89.731 Y88.804 E15.54968
G0 F6000 X89.993 Y89.106
G1 F1200 X90.675 Y88.514 E15.57972
G1 X91.407 Y87.985 E15.60976
G1 X92.183 Y87.523 E15.6398
G1 X92.997 Y87.132 E15.66983
G1 X93.842 Y86.813 E15.69987
G1 X94.712 Y86.571 E15.72991
G1 X95.6 Y86.407 E15.75994
G1 X96.723 Y86.313 E15.79742
G1 X97.33 Y86.3 E15.81762
G1 X137.293 Y86.3 E17.14679
G1 X138.137 Y86.311 E17.17487
G1 X139.039 Y86.364 E17.20492
G1 X139.932 Y86.496 E17.23494
G1 X140.81 Y86.707 E17.26498
G1 X141.666 Y86.995 E17.29501
G1 X142.493 Y87.357 E17.32504
G1 X143.285 Y87.792 E17.35509
G1 X144.036 Y88.294 E17.38514
G1 X144.739 Y88.861 E17.41518
G1 X145.389 Y89.488 E17.44522
G1 X145.981 Y90.17 E17.47525
G1 X146.511 Y90.901 E17.50528
G1 X146.973 Y91.677 E17.53532
G1 X147.366 Y92.49 E17.56536
G1 X147.684 Y93.335 E17.59539
G1 X147.927 Y94.205 E17.62543
G1 X148.092 Y95.093 E17.65547
G1 X148.187 Y96.223 E17.69319
G1 X148.2 Y96.83 E17.71338
G1 X148.199 Y137.904 E19.07951
G1 X148.189 Y138.631 E19.10369
G1 X148.137 Y139.533 E19.13374
G1 X148.005 Y140.426 E19.16376
G1 X147.794 Y141.305 E19.19383
G1 X147.507 Y142.161 E19.22386
G1 X147.145 Y142.988 E19.25388
G1 X146.711 Y143.78 E19.28392
G1 X146.209 Y144.531 E19.31397
G1 X145.643 Y145.234 E19.34399
G1 X145.016 Y145.885 E19.37405
G1 X144.335 Y146.477 E19.40406
G1 X143.604 Y147.007 E19.43409
G1 X142.828 Y147.47 E19.46415
G1 X142.015 Y147.863 E19.49418
G1 X141.17 Y148.183 E19.52423
G1 X140.301 Y148.426 E19.55424
G1 X139.413 Y148.591 E19.58428
G1 X138.277 Y148.687 E19.6222
G1 X137.67 Y148.7 E19.6424
G1 X97.561 Y148.699 E20.97643
G1 X96.863 Y148.689 E20.99964
G1 X95.961 Y148.636 E21.0297
G1 X95.068 Y148.504 E21.05972
G1 X94.19 Y148.293 E21.08975
G1 X93.334 Y148.005 E21.11979
G1 X92.507 Y147.643 E21.14982
G1 X91.715 Y147.208 E21.17987
G1 X90.964 Y146.706 E21.20992
G1 X90.261 Y146.139 E21.23996
G1 X89.611 Y145.512 E21.27
G1 X89.019 Y144.83 E21.30003
G1 X88.489 Y144.099 E21.33006
G1 X88.027 Y143.323 E21.3601
G1 X87.634 Y142.51 E21.39014
G1 X87.316 Y141.665 E21.42016
G1 X87.073 Y140.795 E21.45021
G1 X86.908 Y139.907 E21.48025
G1 X86.813 Y138.766 E21.51833
G1 X86.8 Y138.158 E21.53856
G1 X86.801 Y97.021 E22.90678
G1 X86.811 Y96.356 E22.9289
G1 X86.865 Y95.454 E22.95895
G1 X86.998 Y94.561 E22.98898
G1 X87.209 Y93.683 E23.01902
G1 X87.498 Y92.827 E23.04907
G1 X87.861 Y92 E23.07911
G1 X88.295 Y91.209 E23.10911
G1 X88.798 Y90.458 E23.13918
G1 X89.366 Y89.756 E23.16921
G1 X89.993 Y89.106 E23.19925
G1 F2700 E18.19925
;MESH:flanged_nut_side_load_block.stl
G0 F6000 X110.696 Y115.204
G0 X117.5 Y124.5
;TYPE:WALL-INNER
G1 F2700 E23.19925
G1 F1200 X117.49 Y124.5 E23.19958
G1 X117.05 Y124.484 E23.21423
G1 X116.615 Y124.442 E23.22876
G1 X116.11 Y124.361 E23.24577
G1 X115.678 Y124.258 E23.26054
G1 X115.249 Y124.124 E23.27549
G1 X114.818 Y123.964 E23.29078
G1 X114.387 Y123.769 E23.30652
G1 X114.015 Y123.569 E23.32057
G1 X113.648 Y123.343 E23.3349
G1 X113.228 Y123.046 E23.35201
G1 X112.873 Y122.755 E23.36728
G1 X112.533 Y122.434 E23.38283
G1 X112.223 Y122.1 E23.39799
G1 X111.932 Y121.742 E23.41333
G1 X111.667 Y121.371 E23.42849
G1 X111.418 Y120.971 E23.44417
G1 X111.203 Y120.565 E23.45945
G1 X111.039 Y120.197 E23.47285
G1 X110.87 Y119.741 E23.48902
G1 X110.726 Y119.269 E23.50543
G1 X110.638 Y118.881 E23.51867
G1 X110.56 Y118.425 E23.53405
G1 X110.512 Y117.945 E23.5501
G1 X110.5 Y117.5 E23.5649
G1 X110.515 Y117.007 E23.58131
G1 X110.56 Y116.578 E23.59566
G1 X110.64 Y116.101 E23.61174
G1 X110.732 Y115.713 E23.625
G1 X110.881 Y115.223 E23.64204
G1 X111.039 Y114.799 E23.65709
G1 X111.203 Y114.431 E23.67049
G1 X111.439 Y113.989 E23.68715
G1 X111.69 Y113.591 E23.7028
G1 X111.934 Y113.255 E23.71662
G1 X112.249 Y112.865 E23.73329
G1 X112.571 Y112.524 E23.74889
G1 X112.879 Y112.239 E23.76285
G1 X113.241 Y111.944 E23.77838
G1 X113.597 Y111.688 E23.79296
G1 X114.021 Y111.422 E23.80961
G1 X114.389 Y111.226 E23.82348
G1 X114.835 Y111.025 E23.83975
G1 X115.223 Y110.881 E23.85351
G1 X115.713 Y110.732 E23.87055
G1 X116.137 Y110.632 E23.88504
G1 X116.596 Y110.554 E23.90052
G1 X116.996 Y110.514 E23.91389
G1 X117.501 Y110.5 E23.93069
G1 X117.989 Y110.515 E23.94693
G1 X118.415 Y110.559 E23.96118
G1 X118.886 Y110.635 E23.97705
G1 X119.318 Y110.738 E23.99182
G1 X119.747 Y110.872 E24.00677
G1 X120.178 Y111.032 E24.02206
G1 X120.57 Y111.208 E24.03635
G1 X121.019 Y111.447 E24.05327
G1 X121.383 Y111.676 E24.06757
G1 X121.739 Y111.932 E24.08215
G1 X122.122 Y112.241 E24.09852
G1 X122.463 Y112.562 E24.1141
G1 X122.747 Y112.866 E24.12793
G1 X123.062 Y113.255 E24.14458
G1 X123.329 Y113.625 E24.15976
G1 X123.578 Y114.025 E24.17543
G1 X123.774 Y114.393 E24.1893
G1 X123.975 Y114.835 E24.20545
G1 X124.13 Y115.255 E24.22034
G1 X124.274 Y115.727 E24.23675
G1 X124.362 Y116.115 E24.24998
G1 X124.437 Y116.581 E24.26568
G1 X124.484 Y117.045 E24.28119
G1 X124.5 Y117.523 E24.2971
G1 X124.484 Y117.951 E24.31135
G1 X124.436 Y118.423 E24.32713
G1 X124.364 Y118.86 E24.34186
G1 X124.27 Y119.277 E24.35607
G1 X124.119 Y119.773 E24.37332
G1 X123.958 Y120.202 E24.38856
G1 X123.774 Y120.603 E24.40323
G1 X123.557 Y121.007 E24.41849
G1 X123.329 Y121.371 E24.43277
G1 X123.041 Y121.772 E24.44919
G1 X122.747 Y122.131 E24.46463
G1 X122.455 Y122.442 E24.47881
G1 X122.124 Y122.754 E24.49394
G1 X121.755 Y123.058 E24.50984
G1 X121.369 Y123.33 E24.52555
G1 X120.975 Y123.574 E24.54096
G1 X120.607 Y123.77 E24.55483
G1 X120.161 Y123.975 E24.57116
G1 X119.773 Y124.119 E24.58492
G1 X119.277 Y124.27 E24.60217
G1 X118.889 Y124.358 E24.6154
G1 X118.4 Y124.442 E24.6319
G1 X117.963 Y124.484 E24.6465
G1 X117.5 Y124.5 E24.66191
G1 F2700 E19.66191
G0 F6000 X117.48 Y137.719
G0 X117.5 Y137.9
G1 F2700 E24.66191
G1 F1200 X137.4 Y137.9 E25.32379
G1 X137.4 Y97.1 E26.6808
G1 X97.6 Y97.1 E28.00456
G1 X97.601 Y137.899 E29.36154
G1 X117.5 Y137.9 E30.02338
G0 F6000 X117.5 Y138.3
;TYPE:WALL-OUTER
G1 F1200 X137.8 Y138.3 E30.69856
G1 X137.8 Y96.7 E32.08218
G1 X97.2 Y96.7 E33.43254
G1 X97.201 Y138.299 E34.81613
G1 X117.5 Y138.3 E35.49128
G1 F2700 E30.49128
G0 F6000 X117.5 Y137.99
G0 X117.492 Y137.719
G0 X117.482 Y124.68
G0 X117.504 Y124.1
G1 F2700 E35.49128
G1 F1200 X117.051 Y124.083 E35.50636
G1 X116.644 Y124.042 E35.51996
G1 X116.202 Y123.971 E35.53485
G1 X115.796 Y123.876 E35.54872
G1 X115.396 Y123.752 E35.56265
G1 X114.982 Y123.599 E35.57733
G1 X114.577 Y123.417 E35.5921
G1 X114.194 Y123.211 E35.60656
G1 X113.848 Y122.996 E35.62011
G1 X113.481 Y122.736 E35.63507
G1 X113.147 Y122.463 E35.64942
G1 X112.825 Y122.161 E35.6641
G1 X112.533 Y121.847 E35.67836
G1 X112.257 Y121.509 E35.69287
G1 X112.006 Y121.159 E35.7072
G1 X111.771 Y120.783 E35.72195
G1 X111.569 Y120.402 E35.73629
G1 X111.4 Y120.022 E35.75012
G1 X111.252 Y119.623 E35.76428
G1 X111.116 Y119.181 E35.77966
G1 X111.028 Y118.793 E35.79289
G1 X110.954 Y118.358 E35.80757
G1 X110.912 Y117.934 E35.82174
G1 X110.9 Y117.5 E35.83618
G1 X110.913 Y117.047 E35.85125
G1 X110.954 Y116.643 E35.86476
G1 X111.029 Y116.193 E35.87993
G1 X111.124 Y115.793 E35.89361
G1 X111.256 Y115.362 E35.9086
G1 X111.405 Y114.962 E35.9228
G1 X111.575 Y114.581 E35.93667
G1 X111.778 Y114.201 E35.951
G1 X112.014 Y113.826 E35.96574
G1 X112.264 Y113.482 E35.97988
G1 X112.541 Y113.139 E35.99455
G1 X112.843 Y112.817 E36.00923
G1 X113.133 Y112.549 E36.02236
G1 X113.475 Y112.269 E36.03706
G1 X113.841 Y112.006 E36.05205
G1 X114.209 Y111.775 E36.0665
G1 X114.589 Y111.573 E36.08082
G1 X114.974 Y111.4 E36.09486
G1 X115.373 Y111.252 E36.10901
G1 X115.805 Y111.121 E36.12403
G1 X116.205 Y111.026 E36.1377
G1 X116.636 Y110.952 E36.15224
G1 X117.036 Y110.912 E36.16561
G1 X117.49 Y110.9 E36.18072
G1 X117.949 Y110.913 E36.19599
G1 X118.352 Y110.954 E36.20947
G1 X118.794 Y111.025 E36.22435
G1 X119.2 Y111.12 E36.23822
G1 X119.6 Y111.244 E36.25215
G1 X120.014 Y111.397 E36.26683
G1 X120.418 Y111.579 E36.28157
G1 X120.807 Y111.786 E36.29623
G1 X121.149 Y112.001 E36.30966
G1 X121.514 Y112.264 E36.32462
G1 X121.849 Y112.533 E36.33891
G1 X122.171 Y112.835 E36.3536
G1 X122.464 Y113.15 E36.36791
G1 X122.738 Y113.49 E36.38243
G1 X122.99 Y113.837 E36.39669
G1 X123.225 Y114.213 E36.41144
G1 X123.426 Y114.592 E36.42571
G1 X123.6 Y114.974 E36.43967
G1 X123.748 Y115.373 E36.45382
G1 X123.884 Y115.815 E36.46921
G1 X123.974 Y116.216 E36.48288
G1 X124.043 Y116.655 E36.49766
G1 X124.084 Y117.06 E36.51119
G1 X124.1 Y117.508 E36.5261
G1 X124.083 Y117.949 E36.54078
G1 X124.042 Y118.357 E36.55442
G1 X123.968 Y118.801 E36.56939
G1 X123.876 Y119.203 E36.58311
G1 X123.744 Y119.634 E36.5981
G1 X123.594 Y120.036 E36.61237
G1 X123.421 Y120.415 E36.62623
G1 X123.218 Y120.795 E36.64056
G1 X122.983 Y121.169 E36.65525
G1 X122.731 Y121.519 E36.66959
G1 X122.455 Y121.857 E36.68411
G1 X122.154 Y122.178 E36.69874
G1 X121.878 Y122.438 E36.71136
G1 X121.524 Y122.732 E36.72666
G1 X121.158 Y122.99 E36.74155
G1 X120.787 Y123.221 E36.75609
G1 X120.408 Y123.422 E36.77036
G1 X120.022 Y123.6 E36.7845
G1 X119.623 Y123.748 E36.79865
G1 X119.189 Y123.88 E36.81374
G1 X118.791 Y123.969 E36.8273
G1 X118.36 Y124.044 E36.84185
G1 X117.948 Y124.084 E36.85562
G1 X117.504 Y124.1 E36.8704
G1 F2700 E31.8704
G0 F6000 X117.494 Y124.409
G0 X117.482 Y124.68
G0 X117.48 Y137.719
G0 X117.5 Y137.537
;TYPE:SKIN
G1 F2700 E36.8704
G1 F1200 X97.96 Y137.536 E37.5203
G1 X97.961 Y97.461 E38.8532
G1 X137.04 Y97.46 E40.15297
G1 X137.04 Y137.539 E41.48601
G1 X117.5 Y137.537 E42.13591
G1 F2700 E37.13591
G0 F6000 X117.499 Y137.799
G0 X117.482 Y124.68
G0 X117.5 Y124.859
G1 F2700 E42.13591
G1 F1200 X117.979 Y124.844 E42.15185
G1 X118.443 Y124.8 E42.16735
G1 X118.959 Y124.709 E42.18478
G1 X119.405 Y124.607 E42.2
G1 X119.854 Y124.472 E42.21559
G1 X120.343 Y124.288 E42.23297
G1 X120.761 Y124.094 E42.24829
G1 X121.146 Y123.889 E42.2628
G1 X121.558 Y123.634 E42.27892
G1 X122.004 Y123.32 E42.29706
G1 X122.369 Y123.014 E42.3129
G1 X122.664 Y122.739 E42.32631
G1 X123.001 Y122.386 E42.34255
G1 X123.319 Y121.999 E42.35921
G1 X123.603 Y121.605 E42.37536
G1 X123.861 Y121.2 E42.39133
G1 X124.097 Y120.763 E42.40785
G1 X124.315 Y120.278 E42.42554
G1 X124.484 Y119.816 E42.4419
G1 X124.604 Y119.428 E42.45541
G1 X124.716 Y118.928 E42.47245
G1 X124.794 Y118.474 E42.48777
G1 X124.839 Y118.033 E42.50251
G1 X124.86 Y117.533 E42.51916
G1 X124.844 Y117.021 E42.5362
G1 X124.795 Y116.543 E42.55218
G1 X124.722 Y116.084 E42.56764
G1 X124.628 Y115.66 E42.58208
G1 X124.476 Y115.161 E42.59943
G1 X124.304 Y114.691 E42.61608
G1 X124.09 Y114.224 E42.63316
G1 X123.894 Y113.847 E42.64729
G1 X123.61 Y113.393 E42.66511
G1 X123.349 Y113.04 E42.67971
G1 X123.053 Y112.667 E42.69555
