;FLAVOR:Marlin
;TIME:4214
;Filament used: 3.49504m
;Layer height: 0.2
;MINX:81.5
;MINY:92.4
;MINZ:0.2
;MAXX:153.5
;MAXY:142.6
;MAXZ:20
;TARGET_MACHINE.NAME:Creality Ender-3
;Generated with Cura_SteamEngine 5.12.0
M140 S60
M105
M190 S60
M104 S215
M105
M109 S215
; Ender 3 Custom Start G-code
G92 E0 ; Reset Extruder
G28 ; Home all axes
G1 Z2.0 F3000 ; Move Z Axis up little to prevent scratching of Heat Bed
G1 X0.1 Y20 Z0.3 F5000.0 ; Move to start position
G1 X0.1 Y200.0 Z0.3 F1500.0 E15 ; Draw the first line
G1 X0.4 Y200.0 Z0.3 F5000.0 ; Move to side a little
G1 X0.4 Y20 Z0.3 F1500.0 E30 ; Draw the second line
G92 E0 ; Reset Extruder
G1 Z2.0 F3000 ; Move Z Axis up little to prevent scratching of Heat Bed
G1 X5 Y20 Z0.3 F5000.0 ; Move over to prevent blob squish
M82 ;absolute extrusion mode
G92 E0
G92 E0
G1 F2700 E-5
;LAYER_COUNT:100
;LAYER:0
M107
G0 F6000 X84.969 Y95.401 Z0.2
;TYPE:SKIRT
G1 F2700 E0
G1 F1200 X85.679 Y94.787 E0.03122
G1 X86.498 Y94.197 E0.06479
G1 X87.337 Y93.701 E0.09721
G1 X88.151 Y93.31 E0.12724
G1 X89.128 Y92.942 E0.16197
G1 X90.032 Y92.692 E0.19316
G1 X91.034 Y92.509 E0.22704
G1 X92.205 Y92.413 E0.26612
G1 X92.812 Y92.4 E0.28631
G1 X141.804 Y92.4 E1.91579
G1 X142.684 Y92.413 E1.94507
G1 X143.656 Y92.472 E1.97745
G1 X144.619 Y92.618 E2.00985
G1 X145.566 Y92.849 E2.04227
G1 X146.454 Y93.149 E2.07345
G1 X147.346 Y93.539 E2.10583
G1 X148.229 Y94.026 E2.13937
G1 X148.98 Y94.528 E2.16941
G1 X149.795 Y95.186 E2.20425
G1 X150.493 Y95.864 E2.23661
G1 X151.129 Y96.601 E2.26899
G1 X151.699 Y97.391 E2.30139
G1 X152.161 Y98.167 E2.33143
G1 X152.615 Y99.109 E2.36621
G1 X152.944 Y99.987 E2.3974
G1 X153.213 Y100.959 E2.43094
G1 X153.39 Y101.925 E2.4636
G1 X153.485 Y103.055 E2.50132
G1 X153.5 Y103.73 E2.52378
G1 X153.499 Y131.016 E3.43131
G1 X153.487 Y131.777 E3.45663
G1 X153.429 Y132.75 E3.48905
G1 X153.283 Y133.713 E3.52144
G1 X153.052 Y134.66 E3.55386
G1 X152.739 Y135.582 E3.58625
G1 X152.347 Y136.473 E3.61862
G1 X151.895 Y137.295 E3.64982
G1 X151.333 Y138.133 E3.68338
G1 X150.743 Y138.863 E3.7146
G1 X150.04 Y139.589 E3.74821
G1 X149.304 Y140.225 E3.78057
G1 X148.514 Y140.795 E3.81297
G1 X147.738 Y141.258 E3.84302
G1 X146.798 Y141.711 E3.87773
G1 X145.885 Y142.053 E3.91016
G1 X144.947 Y142.312 E3.94252
G1 X143.981 Y142.489 E3.97519
G1 X142.845 Y142.585 E4.0131
G1 X142.17 Y142.6 E4.03556
G1 X93.049 Y142.599 E5.66933
G1 X92.316 Y142.587 E5.69371
G1 X91.344 Y142.528 E5.7261
G1 X90.381 Y142.382 E5.7585
G1 X89.434 Y142.151 E5.79092
G1 X88.546 Y141.851 E5.82209
G1 X87.654 Y141.461 E5.85447
G1 X86.771 Y140.974 E5.88801
G1 X86.02 Y140.472 E5.91806
G1 X85.205 Y139.814 E5.9529
G1 X84.507 Y139.136 E5.98526
G1 X83.871 Y138.399 E6.01764
G1 X83.301 Y137.609 E6.05004
G1 X82.839 Y136.833 E6.08008
G1 X82.385 Y135.891 E6.11486
G1 X82.056 Y135.013 E6.14604
G1 X81.787 Y134.04 E6.17962
G1 X81.61 Y133.073 E6.21232
G1 X81.514 Y131.908 E6.2512
G1 X81.5 Y131.258 E6.27282
G1 X81.501 Y103.909 E7.18245
G1 X81.513 Y103.208 E7.20577
G1 X81.573 Y102.235 E7.23819
G1 X81.72 Y101.274 E7.27053
G1 X81.951 Y100.326 E7.30298
G1 X82.253 Y99.437 E7.33421
G1 X82.66 Y98.515 E7.36773
G1 X83.131 Y97.663 E7.40011
G1 X83.676 Y96.854 E7.43255
G1 X84.267 Y96.126 E7.46374
G1 X84.969 Y95.401 E7.49731
G0 F6000 X85.231 Y95.704
G1 F1200 X85.941 Y95.09 E7.52853
G1 X86.702 Y94.541 E7.55974
G1 X87.51 Y94.062 E7.59098
G1 X88.324 Y93.671 E7.62101
G1 X89.235 Y93.328 E7.65339
G1 X90.139 Y93.078 E7.68459
G1 X91.067 Y92.908 E7.71596
G1 X92.214 Y92.813 E7.75424
G1 X92.821 Y92.8 E7.77444
G1 X141.798 Y92.8 E9.40342
G1 X142.66 Y92.812 E9.43209
G1 X143.597 Y92.868 E9.46331
G1 X144.525 Y93.007 E9.49452
G1 X145.438 Y93.228 E9.52577
G1 X146.294 Y93.516 E9.55581
G1 X147.186 Y93.906 E9.58819
G1 X148.007 Y94.359 E9.61937
G1 X148.758 Y94.861 E9.64942
G1 X149.517 Y95.473 E9.68185
G1 X150.191 Y96.126 E9.71306
G1 X150.805 Y96.835 E9.74425
G1 X151.355 Y97.596 E9.77548
G1 X151.817 Y98.372 E9.80552
G1 X152.24 Y99.249 E9.83791
G1 X152.569 Y100.127 E9.86909
G1 X152.82 Y101.032 E9.90033
G1 X152.991 Y101.959 E9.93168
G1 X153.086 Y103.089 E9.9694
G1 X153.1 Y103.73 E9.99072
G1 X153.099 Y131.01 E10.89806
G1 X153.088 Y131.754 E10.92281
G1 X153.033 Y132.691 E10.95402
G1 X152.894 Y133.619 E10.98523
G1 X152.673 Y134.532 E11.01648
G1 X152.373 Y135.421 E11.04768
G1 X151.996 Y136.28 E11.07889
G1 X151.544 Y137.102 E11.11009
G1 X151.021 Y137.882 E11.14132
G1 X150.455 Y138.585 E11.17134
G1 X149.778 Y139.287 E11.20378
G1 X149.07 Y139.901 E11.23495
G1 X148.309 Y140.451 E11.26618
G1 X147.533 Y140.914 E11.29623
G1 X146.657 Y141.337 E11.32859
G1 X145.778 Y141.668 E11.35983
G1 X144.874 Y141.919 E11.39103
G1 X143.947 Y142.09 E11.42238
G1 X142.811 Y142.186 E11.4603
G1 X142.17 Y142.2 E11.48163
G1 X93.055 Y142.199 E13.1152
G1 X92.34 Y142.188 E13.13898
G1 X91.403 Y142.132 E13.1702
G1 X90.475 Y141.993 E13.20141
G1 X89.562 Y141.772 E13.23265
G1 X88.706 Y141.484 E13.26269
G1 X87.814 Y141.094 E13.29507
G1 X86.993 Y140.641 E13.32626
G1 X86.242 Y140.139 E13.35631
G1 X85.483 Y139.527 E13.38873
G1 X84.809 Y138.874 E13.41995
G1 X84.195 Y138.165 E13.45114
G1 X83.645 Y137.404 E13.48237
G1 X83.183 Y136.628 E13.51241
G1 X82.76 Y135.751 E13.54479
G1 X82.431 Y134.873 E13.57598
G1 X82.18 Y133.968 E13.60722
G1 X82.009 Y133.04 E13.6386
G1 X81.913 Y131.875 E13.67748
G1 X81.9 Y131.258 E13.69801
G1 X81.901 Y103.915 E14.60744
G1 X81.912 Y103.232 E14.63016
G1 X81.969 Y102.295 E14.66138
G1 X82.109 Y101.368 E14.69256
G1 X82.33 Y100.455 E14.72381
G1 X82.632 Y99.566 E14.75503
G1 X83.01 Y98.708 E14.78622
G1 X83.463 Y97.886 E14.81743
G1 X83.987 Y97.106 E14.84869
G1 X84.578 Y96.378 E14.87988
G1 X85.231 Y95.704 E14.91109
G0 F6000 X85.493 Y96.006
G1 F1200 X86.175 Y95.414 E14.94113
G1 X86.907 Y94.885 E14.97116
G1 X87.683 Y94.423 E15.0012
G1 X88.497 Y94.032 E15.03124
G1 X89.342 Y93.713 E15.06128
G1 X90.212 Y93.471 E15.09131
G1 X91.1 Y93.307 E15.12135
G1 X92.223 Y93.213 E15.15883
G1 X92.83 Y93.2 E15.17902
G1 X141.793 Y93.2 E16.80754
G1 X142.637 Y93.211 E16.83561
G1 X143.539 Y93.264 E16.86566
G1 X144.432 Y93.396 E16.89569
G1 X145.31 Y93.607 E16.92572
G1 X146.166 Y93.895 E16.95576
G1 X146.993 Y94.257 E16.98579
G1 X147.785 Y94.692 E17.01584
G1 X148.536 Y95.194 E17.04589
G1 X149.239 Y95.761 E17.07593
G1 X149.889 Y96.388 E17.10596
G1 X150.481 Y97.07 E17.136
G1 X151.011 Y97.801 E17.16603
G1 X151.473 Y98.577 E17.19607
G1 X151.866 Y99.39 E17.2261
G1 X152.184 Y100.235 E17.25613
G1 X152.427 Y101.105 E17.28618
G1 X152.592 Y101.993 E17.31622
G1 X152.687 Y103.123 E17.35393
G1 X152.7 Y103.73 E17.37413
G1 X152.699 Y131.004 E18.28126
G1 X152.689 Y131.731 E18.30545
G1 X152.637 Y132.633 E18.3355
G1 X152.505 Y133.526 E18.36552
G1 X152.294 Y134.405 E18.39559
G1 X152.007 Y135.261 E18.42562
G1 X151.645 Y136.088 E18.45564
G1 X151.211 Y136.88 E18.48568
G1 X150.709 Y137.631 E18.51572
G1 X150.143 Y138.334 E18.54574
G1 X149.516 Y138.985 E18.5758
G1 X148.835 Y139.577 E18.60582
G1 X148.104 Y140.107 E18.63585
G1 X147.328 Y140.57 E18.6659
G1 X146.515 Y140.963 E18.69594
G1 X145.67 Y141.283 E18.72599
G1 X144.801 Y141.526 E18.756
G1 X143.913 Y141.691 E18.78604
G1 X142.777 Y141.787 E18.82396
G1 X142.17 Y141.8 E18.84415
G1 X93.061 Y141.799 E20.47752
G1 X92.363 Y141.789 E20.50074
G1 X91.461 Y141.736 E20.53079
G1 X90.568 Y141.604 E20.56082
G1 X89.69 Y141.393 E20.59085
G1 X88.834 Y141.105 E20.62089
G1 X88.007 Y140.743 E20.65092
G1 X87.215 Y140.308 E20.68097
G1 X86.464 Y139.806 E20.71102
G1 X85.761 Y139.239 E20.74106
G1 X85.111 Y138.612 E20.77109
G1 X84.519 Y137.93 E20.80113
G1 X83.989 Y137.199 E20.83116
G1 X83.527 Y136.423 E20.8612
G1 X83.134 Y135.61 E20.89123
G1 X82.816 Y134.765 E20.92126
G1 X82.573 Y133.895 E20.95131
G1 X82.408 Y133.007 E20.98135
G1 X82.313 Y131.866 E21.01943
G1 X82.3 Y131.258 E21.03966
G1 X82.301 Y103.921 E21.94889
G1 X82.311 Y103.256 E21.97101
G1 X82.365 Y102.354 E22.00106
G1 X82.498 Y101.461 E22.03109
G1 X82.709 Y100.583 E22.06112
G1 X82.998 Y99.727 E22.09117
G1 X83.361 Y98.9 E22.12121
G1 X83.795 Y98.109 E22.15122
G1 X84.298 Y97.358 E22.18129
G1 X84.866 Y96.656 E22.21132
G1 X85.493 Y96.006 E22.24136
G1 F2700 E17.24136
;MESH:codex-sketch-to-code-cover.stl
G0 F6000 X92.93 Y102.735
G0 X117.5 Y131
;TYPE:WALL-INNER
G1 F2700 E22.24136
G1 F1200 X141.9 Y131 E23.05291
G1 X141.9 Y104 E23.95093
G1 X93.1 Y104 E25.57402
G1 X93.1 Y131 E26.47205
G1 X117.5 Y131 E27.28359
G0 F6000 X117.5 Y131.4
;TYPE:WALL-OUTER
G1 F1200 X142.3 Y131.4 E28.10845
G1 X142.3 Y103.6 E29.03308
G1 X92.7 Y103.6 E30.68278
G1 X92.7 Y131.4 E31.60741
G1 X117.5 Y131.4 E32.43226
G0 F6000 X117.5 Y130.64
;TYPE:SKIN
G1 F1200 X93.46 Y130.64 E33.23184
G1 X93.46 Y104.36 E34.10591
G1 X141.54 Y104.36 E35.70506
G1 X141.54 Y130.64 E36.57914
G1 X117.5 Y130.64 E37.37871
G1 F2700 E32.37871
G0 F6000 X117.5 Y130.9
G0 X94.236 Y130.9
G0 X94.236 Y130.44
G1 F2700 E37.37871
G1 F1200 X93.661 Y129.864 E37.40578
G0 F6000 X93.661 Y129.299
G1 F1200 X94.802 Y130.44 E37.45945
G0 F6000 X95.367 Y130.44
G1 F1200 X93.661 Y128.733 E37.53972
G0 F6000 X93.661 Y128.167
G1 F1200 X95.933 Y130.44 E37.64661
G0 F6000 X96.499 Y130.44
G1 F1200 X93.661 Y127.602 E37.7801
G0 F6000 X93.661 Y127.036
G1 F1200 X97.065 Y130.44 E37.94021
G0 F6000 X97.63 Y130.44
G1 F1200 X93.661 Y126.47 E38.12693
G0 F6000 X93.661 Y125.905
G1 F1200 X98.196 Y130.44 E38.34024
G0 F6000 X98.762 Y130.44
G1 F1200 X93.661 Y125.339 E38.58018
G0 F6000 X93.661 Y124.773
G1 F1200 X99.327 Y130.44 E38.84671
G0 F6000 X99.893 Y130.44
G1 F1200 X93.661 Y124.208 E39.13984
G0 F6000 X93.661 Y123.642
G1 F1200 X100.459 Y130.44 E39.4596
G0 F6000 X101.024 Y130.44
G1 F1200 X93.661 Y123.076 E39.80596
G0 F6000 X93.661 Y122.51
G1 F1200 X101.59 Y130.44 E40.17894
G0 F6000 X102.156 Y130.44
G1 F1200 X93.661 Y121.945 E40.57852
G0 F6000 X93.661 Y121.379
G1 F1200 X102.721 Y130.44 E41.00469
G0 F6000 X103.287 Y130.44
G1 F1200 X93.661 Y120.813 E41.45749
G0 F6000 X93.661 Y120.248
G1 F1200 X103.853 Y130.44 E41.9369
G0 F6000 X104.418 Y130.44
G1 F1200 X93.661 Y119.682 E42.4429
G0 F6000 X93.661 Y119.116
G1 F1200 X104.984 Y130.44 E42.97552
G0 F6000 X105.55 Y130.44
G1 F1200 X93.661 Y118.551 E43.53474
G0 F6000 X93.661 Y117.985
G1 F1200 X106.116 Y130.44 E44.12058
G0 F6000 X106.681 Y130.44
G1 F1200 X93.661 Y117.419 E44.73303
G0 F6000 X93.661 Y116.854
G1 F1200 X107.247 Y130.44 E45.37207
G0 F6000 X107.813 Y130.44
G1 F1200 X93.661 Y116.288 E46.03774
G0 F6000 X93.661 Y115.722
G1 F1200 X108.378 Y130.44 E46.73001
G0 F6000 X108.944 Y130.44
G1 F1200 X93.661 Y115.157 E47.44887
G0 F6000 X93.661 Y114.591
G1 F1200 X109.51 Y130.44 E48.19436
G0 F6000 X110.075 Y130.44
G1 F1200 X93.661 Y114.025 E48.96645
G0 F6000 X93.661 Y113.46
G1 F1200 X110.641 Y130.44 E49.76513
G0 F6000 X111.207 Y130.44
G1 F1200 X93.661 Y112.894 E50.59044
G0 F6000 X93.661 Y112.328
G1 F1200 X111.772 Y130.44 E51.44235
G0 F6000 X112.338 Y130.44
G1 F1200 X93.661 Y111.762 E52.32089
G0 F6000 X93.661 Y111.197
G1 F1200 X112.904 Y130.44 E53.22602
G0 F6000 X113.469 Y130.44
G1 F1200 X93.661 Y110.631 E54.15775
G0 F6000 X93.661 Y110.065
G1 F1200 X114.035 Y130.44 E55.1161
G0 F6000 X114.601 Y130.44
G1 F1200 X93.661 Y109.5 E56.10106
G0 F6000 X93.661 Y108.934
G1 F1200 X115.166 Y130.44 E57.11261
G0 F6000 X115.732 Y130.44
G1 F1200 X93.661 Y108.368 E58.15079
G0 F6000 X93.661 Y107.803
G1 F1200 X116.298 Y130.44 E59.21556
G0 F6000 X116.864 Y130.44
G1 F1200 X93.661 Y107.237 E60.30696
G0 F6000 X93.661 Y106.671
G1 F1200 X117.429 Y130.44 E61.42496
G0 F6000 X117.995 Y130.44
G1 F1200 X93.661 Y106.106 E62.56955
G0 F6000 X93.661 Y105.54
G1 F1200 X118.561 Y130.44 E63.74077
G0 F6000 X119.126 Y130.44
G1 F1200 X93.661 Y104.974 E64.93859
G0 F6000 X93.813 Y104.561
G1 F1200 X119.692 Y130.44 E66.15586
G0 F6000 X120.258 Y130.44
G1 F1200 X94.378 Y104.561 E67.37315
G0 F6000 X94.944 Y104.561
G1 F1200 X120.823 Y130.44 E68.59042
G0 F6000 X121.389 Y130.44
G1 F1200 X95.51 Y104.561 E69.80769
G0 F6000 X96.075 Y104.561
G1 F1200 X121.955 Y130.44 E71.02498
G0 F6000 X122.52 Y130.44
G1 F1200 X96.641 Y104.561 E72.24225
G0 F6000 X97.207 Y104.561
G1 F1200 X123.086 Y130.44 E73.45952
G0 F6000 X123.652 Y130.44
G1 F1200 X97.772 Y104.561 E74.67681
G0 F6000 X98.338 Y104.561
G1 F1200 X124.217 Y130.44 E75.89408
G0 F6000 X124.783 Y130.44
G1 F1200 X98.904 Y104.561 E77.11135
G0 F6000 X99.469 Y104.561
G1 F1200 X125.349 Y130.44 E78.32864
G0 F6000 X125.915 Y130.44
G1 F1200 X100.035 Y104.561 E79.54593
G0 F6000 X100.601 Y104.561
G1 F1200 X126.48 Y130.44 E80.7632
G0 F6000 X127.046 Y130.44
G1 F1200 X101.166 Y104.561 E81.9805
G0 F6000 X101.732 Y104.561
G1 F1200 X127.612 Y130.44 E83.19779
G0 F6000 X128.177 Y130.44
G1 F1200 X102.298 Y104.561 E84.41506
G0 F6000 X102.864 Y104.561
G1 F1200 X128.743 Y130.44 E85.63233
G0 F6000 X129.309 Y130.44
G1 F1200 X103.429 Y104.561 E86.84962
G0 F6000 X103.995 Y104.561
G1 F1200 X129.874 Y130.44 E88.06689
G0 F6000 X130.44 Y130.44
G1 F1200 X104.561 Y104.561 E89.28416
G0 F6000 X105.126 Y104.561
G1 F1200 X131.006 Y130.44 E90.50145
G0 F6000 X131.571 Y130.44
G1 F1200 X105.692 Y104.561 E91.71872
G0 F6000 X106.258 Y104.561
G1 F1200 X132.137 Y130.44 E92.93599
G0 F6000 X132.703 Y130.44
G1 F1200 X106.823 Y104.561 E94.15328
G0 F6000 X107.389 Y104.561
G1 F1200 X133.268 Y130.44 E95.37055
G0 F6000 X133.834 Y130.44
G1 F1200 X107.955 Y104.561 E96.58782
G0 F6000 X108.52 Y104.561
G1 F1200 X134.4 Y130.44 E97.80511
G0 F6000 X134.965 Y130.44
G1 F1200 X109.086 Y104.561 E99.02238
G0 F6000 X109.652 Y104.561
G1 F1200 X135.531 Y130.44 E100.23965
G0 F6000 X136.097 Y130.44
G1 F1200 X110.217 Y104.561 E101.45694
G0 F6000 X110.783 Y104.561
G1 F1200 X136.663 Y130.44 E102.67423
G0 F6000 X137.228 Y130.44
G1 F1200 X111.349 Y104.561 E103.8915
G0 F6000 X111.914 Y104.561
G1 F1200 X137.794 Y130.44 E105.10879
G0 F6000 X138.36 Y130.44
G1 F1200 X112.48 Y104.561 E106.32608
G0 F6000 X113.046 Y104.561
G1 F1200 X138.925 Y130.44 E107.54335
G0 F6000 X139.491 Y130.44
G1 F1200 X113.612 Y104.561 E108.76062
G0 F6000 X114.177 Y104.561
G1 F1200 X140.057 Y130.44 E109.97791
G0 F6000 X140.622 Y130.44
G1 F1200 X114.743 Y104.561 E111.19518
G0 F6000 X115.309 Y104.561
G1 F1200 X141.188 Y130.44 E112.41245
G0 F6000 X141.34 Y130.026
G1 F1200 X115.874 Y104.561 E113.61027
G0 F6000 X116.44 Y104.561
G1 F1200 X141.34 Y129.461 E114.78149
G0 F6000 X141.34 Y128.895
G1 F1200 X117.006 Y104.561 E115.92609
G0 F6000 X117.571 Y104.561
G1 F1200 X141.34 Y128.329 E117.04408
G0 F6000 X141.34 Y127.764
G1 F1200 X118.137 Y104.561 E118.13548
G0 F6000 X118.703 Y104.561
G1 F1200 X141.34 Y127.198 E119.20026
G0 F6000 X141.34 Y126.632
G1 F1200 X119.268 Y104.561 E120.23843
G0 F6000 X119.834 Y104.561
G1 F1200 X141.34 Y126.067 E121.25001
G0 F6000 X141.34 Y125.501
G1 F1200 X120.4 Y104.561 E122.23496
G0 F6000 X120.965 Y104.561
G1 F1200 X141.34 Y124.935 E123.19332
G0 F6000 X141.34 Y124.369
G1 F1200 X121.531 Y104.561 E124.12505
G0 F6000 X122.097 Y104.561
G1 F1200 X141.34 Y123.804 E125.03018
G0 F6000 X141.34 Y123.238
G1 F1200 X122.663 Y104.561 E125.90869
G0 F6000 X123.228 Y104.561
G1 F1200 X141.34 Y122.672 E126.7606
G0 F6000 X141.34 Y122.107
G1 F1200 X123.794 Y104.561 E127.58591
G0 F6000 X124.36 Y104.561
G1 F1200 X141.34 Y121.541 E128.38459
G0 F6000 X141.34 Y120.975
G1 F1200 X124.925 Y104.561 E129.15668
G0 F6000 X125.491 Y104.561
G1 F1200 X141.34 Y120.41 E129.90217
G0 F6000 X141.34 Y119.844
G1 F1200 X126.057 Y104.561 E130.62104
G0 F6000 X126.622 Y104.561
G1 F1200 X141.34 Y119.278 E131.3133
G0 F6000 X141.34 Y118.713
G1 F1200 X127.188 Y104.561 E131.97897
G0 F6000 X127.754 Y104.561
G1 F1200 X141.34 Y118.147 E132.61801
G0 F6000 X141.34 Y117.581
G1 F1200 X128.319 Y104.561 E133.23046
G0 F6000 X128.885 Y104.561
G1 F1200 X141.34 Y117.016 E133.8163
G0 F6000 X141.34 Y116.45
G1 F1200 X129.451 Y104.561 E134.37552
G0 F6000 X130.016 Y104.561
G1 F1200 X141.34 Y115.884 E134.90815
G0 F6000 X141.34 Y115.319
G1 F1200 X130.582 Y104.561 E135.41417
G0 F6000 X131.148 Y104.561
G1 F1200 X141.34 Y114.753 E135.89357
G0 F6000 X141.34 Y114.187
G1 F1200 X131.713 Y104.561 E136.34637
G0 F6000 X132.279 Y104.561
G1 F1200 X141.34 Y113.621 E136.77255
G0 F6000 X141.34 Y113.056
G1 F1200 X132.845 Y104.561 E137.17213
G0 F6000 X133.411 Y104.561
G1 F1200 X141.34 Y112.49 E137.54508
G0 F6000 X141.34 Y111.924
