;FLAVOR:Marlin
;TIME:9514
;Filament used: 7.72895m
;Layer height: 0.2
;MINX:81.5
;MINY:77.4
;MINZ:0.2
;MAXX:153.5
;MAXY:157.6
;MAXZ:22
;TARGET_MACHINE.NAME:Creality Ender-3
;Generated with Cura_SteamEngine 5.12.0
M140 S60
M105
M190 S60
M104 S215
M105
M109 S215
; Ender 3 Custom Start G-code
G92 E0 ; Reset Extruder
G28 ; Home all axes
G1 Z2.0 F3000 ; Move Z Axis up little to prevent scratching of Heat Bed
G1 X0.1 Y20 Z0.3 F5000.0 ; Move to start position
G1 X0.1 Y200.0 Z0.3 F1500.0 E15 ; Draw the first line
G1 X0.4 Y200.0 Z0.3 F5000.0 ; Move to side a little
G1 X0.4 Y20 Z0.3 F1500.0 E30 ; Draw the second line
G92 E0 ; Reset Extruder
G1 Z2.0 F3000 ; Move Z Axis up little to prevent scratching of Heat Bed
G1 X5 Y20 Z0.3 F5000.0 ; Move over to prevent blob squish
M82 ;absolute extrusion mode
G92 E0
G92 E0
G1 F2700 E-5
;LAYER_COUNT:110
;LAYER:0
M107
G0 F6000 X84.267 Y81.126 Z0.2
;TYPE:SKIRT
G1 F2700 E0
G1 F1200 X84.969 Y80.401 E0.03357
G1 X85.679 Y79.787 E0.06479
G1 X86.498 Y79.197 E0.09836
G1 X87.337 Y78.701 E0.13077
G1 X88.151 Y78.31 E0.16081
G1 X89.128 Y77.942 E0.19553
G1 X90.032 Y77.692 E0.22673
G1 X91.034 Y77.509 E0.26061
G1 X92.205 Y77.413 E0.29969
G1 X92.812 Y77.4 E0.31988
G1 X141.804 Y77.4 E1.94936
G1 X142.684 Y77.413 E1.97863
G1 X143.656 Y77.472 E2.01102
G1 X144.619 Y77.618 E2.04342
G1 X145.566 Y77.849 E2.07584
G1 X146.454 Y78.149 E2.10701
G1 X147.346 Y78.539 E2.13939
G1 X148.229 Y79.026 E2.17293
G1 X148.98 Y79.528 E2.20298
G1 X149.795 Y80.186 E2.23781
G1 X150.493 Y80.864 E2.27018
G1 X151.129 Y81.601 E2.30256
G1 X151.699 Y82.391 E2.33496
G1 X152.161 Y83.167 E2.365
G1 X152.615 Y84.109 E2.39978
G1 X152.944 Y84.987 E2.43096
G1 X153.213 Y85.959 E2.46451
G1 X153.39 Y86.925 E2.49717
G1 X153.485 Y88.055 E2.53489
G1 X153.5 Y88.73 E2.55734
G1 X153.499 Y146.016 E4.46268
G1 X153.487 Y146.777 E4.488
G1 X153.429 Y147.75 E4.52042
G1 X153.283 Y148.713 E4.55281
G1 X153.052 Y149.66 E4.58523
G1 X152.739 Y150.582 E4.61762
G1 X152.347 Y151.473 E4.64999
G1 X151.895 Y152.295 E4.68119
G1 X151.333 Y153.133 E4.71475
G1 X150.743 Y153.863 E4.74597
G1 X150.04 Y154.589 E4.77958
G1 X149.304 Y155.225 E4.81194
G1 X148.514 Y155.795 E4.84434
G1 X147.738 Y156.258 E4.87439
G1 X146.798 Y156.711 E4.9091
G1 X145.885 Y157.053 E4.94153
G1 X144.947 Y157.312 E4.97389
G1 X143.981 Y157.489 E5.00655
G1 X142.845 Y157.585 E5.04447
G1 X142.17 Y157.6 E5.06693
G1 X93.049 Y157.599 E6.7007
G1 X92.316 Y157.587 E6.72508
G1 X91.344 Y157.528 E6.75747
G1 X90.381 Y157.382 E6.78987
G1 X89.434 Y157.151 E6.82229
G1 X88.546 Y156.851 E6.85346
G1 X87.654 Y156.461 E6.88584
G1 X86.771 Y155.974 E6.91938
G1 X86.02 Y155.472 E6.94943
G1 X85.205 Y154.814 E6.98427
G1 X84.507 Y154.136 E7.01663
G1 X83.871 Y153.399 E7.04901
G1 X83.301 Y152.609 E7.08141
G1 X82.839 Y151.833 E7.11145
G1 X82.385 Y150.891 E7.14623
G1 X82.056 Y150.013 E7.17741
G1 X81.787 Y149.04 E7.21099
G1 X81.61 Y148.073 E7.24369
G1 X81.514 Y146.908 E7.28257
G1 X81.5 Y146.258 E7.30419
G1 X81.501 Y88.909 E9.21162
G1 X81.513 Y88.208 E9.23494
G1 X81.573 Y87.235 E9.26737
G1 X81.72 Y86.274 E9.2997
G1 X81.951 Y85.326 E9.33216
G1 X82.253 Y84.437 E9.36338
G1 X82.66 Y83.515 E9.3969
G1 X83.131 Y82.663 E9.42928
G1 X83.676 Y81.854 E9.46173
G1 X84.267 Y81.126 E9.49291
G0 F6000 X84.578 Y81.378
G1 F1200 X85.231 Y80.704 E9.52413
G1 X85.941 Y80.09 E9.55535
G1 X86.702 Y79.541 E9.58656
G1 X87.51 Y79.062 E9.6178
G1 X88.324 Y78.671 E9.64783
G1 X89.235 Y78.328 E9.68021
G1 X90.139 Y78.078 E9.71141
G1 X91.067 Y77.908 E9.74279
G1 X92.214 Y77.813 E9.78107
G1 X92.821 Y77.8 E9.80126
G1 X141.798 Y77.8 E11.43024
G1 X142.66 Y77.812 E11.45891
G1 X143.597 Y77.868 E11.49013
G1 X144.525 Y78.007 E11.52134
G1 X145.438 Y78.228 E11.55259
G1 X146.294 Y78.516 E11.58263
G1 X147.186 Y78.906 E11.61501
G1 X148.007 Y79.359 E11.64619
G1 X148.758 Y79.861 E11.67624
G1 X149.517 Y80.473 E11.70867
G1 X150.191 Y81.126 E11.73988
G1 X150.805 Y81.835 E11.77107
G1 X151.355 Y82.596 E11.8023
G1 X151.817 Y83.372 E11.83234
G1 X152.24 Y84.249 E11.86473
G1 X152.569 Y85.127 E11.89591
G1 X152.82 Y86.032 E11.92715
G1 X152.991 Y86.959 E11.9585
G1 X153.086 Y88.089 E11.99622
G1 X153.1 Y88.73 E12.01754
G1 X153.099 Y146.01 E13.92268
G1 X153.088 Y146.754 E13.94743
G1 X153.033 Y147.691 E13.97865
G1 X152.894 Y148.619 E14.00986
G1 X152.673 Y149.532 E14.0411
G1 X152.373 Y150.421 E14.07231
G1 X151.996 Y151.28 E14.10351
G1 X151.544 Y152.102 E14.13471
G1 X151.021 Y152.882 E14.16595
G1 X150.455 Y153.585 E14.19596
G1 X149.778 Y154.287 E14.2284
G1 X149.07 Y154.901 E14.25957
G1 X148.309 Y155.451 E14.2908
G1 X147.533 Y155.914 E14.32086
G1 X146.657 Y156.337 E14.35321
G1 X145.778 Y156.668 E14.38445
G1 X144.874 Y156.919 E14.41566
G1 X143.947 Y157.09 E14.44701
G1 X142.811 Y157.186 E14.48493
G1 X142.17 Y157.2 E14.50625
G1 X93.055 Y157.199 E16.13982
G1 X92.34 Y157.188 E16.16361
G1 X91.403 Y157.132 E16.19483
G1 X90.475 Y156.993 E16.22604
G1 X89.562 Y156.772 E16.25728
G1 X88.706 Y156.484 E16.28732
G1 X87.814 Y156.094 E16.3197
G1 X86.993 Y155.641 E16.35089
G1 X86.242 Y155.139 E16.38093
G1 X85.483 Y154.527 E16.41336
G1 X84.809 Y153.874 E16.44457
G1 X84.195 Y153.165 E16.47577
G1 X83.645 Y152.404 E16.507
G1 X83.183 Y151.628 E16.53703
G1 X82.76 Y150.751 E16.56942
G1 X82.431 Y149.873 E16.6006
G1 X82.18 Y148.968 E16.63184
G1 X82.009 Y148.04 E16.66323
G1 X81.913 Y146.875 E16.70211
G1 X81.9 Y146.258 E16.72263
G1 X81.901 Y88.915 E18.62987
G1 X81.912 Y88.232 E18.65259
G1 X81.969 Y87.295 E18.68381
G1 X82.109 Y86.368 E18.71499
G1 X82.33 Y85.455 E18.74623
G1 X82.632 Y84.566 E18.77746
G1 X83.01 Y83.708 E18.80865
G1 X83.463 Y82.886 E18.83986
G1 X83.987 Y82.106 E18.87112
G1 X84.578 Y81.378 E18.9023
G0 F6000 X84.866 Y81.656
G1 F1200 X85.493 Y81.006 E18.93234
G1 X86.175 Y80.414 E18.96238
G1 X86.907 Y79.885 E18.99242
G1 X87.683 Y79.423 E19.02246
G1 X88.497 Y79.032 E19.05249
G1 X89.342 Y78.713 E19.08253
G1 X90.212 Y78.471 E19.11257
G1 X91.1 Y78.307 E19.1426
G1 X92.223 Y78.213 E19.18008
G1 X92.83 Y78.2 E19.20028
G1 X141.793 Y78.2 E20.82879
G1 X142.637 Y78.211 E20.85687
G1 X143.539 Y78.264 E20.88692
G1 X144.432 Y78.396 E20.91694
G1 X145.31 Y78.607 E20.94698
G1 X146.166 Y78.895 E20.97702
G1 X146.993 Y79.257 E21.00704
G1 X147.785 Y79.692 E21.0371
G1 X148.536 Y80.194 E21.06714
G1 X149.239 Y80.761 E21.09718
G1 X149.889 Y81.388 E21.12722
G1 X150.481 Y82.07 E21.15725
G1 X151.011 Y82.801 E21.18729
G1 X151.473 Y83.577 E21.21732
G1 X151.866 Y84.39 E21.24736
G1 X152.184 Y85.235 E21.27739
G1 X152.427 Y86.105 E21.30743
G1 X152.592 Y86.993 E21.33747
G1 X152.687 Y88.123 E21.37519
G1 X152.7 Y88.73 E21.39538
G1 X152.699 Y146.004 E23.30032
G1 X152.689 Y146.731 E23.3245
G1 X152.637 Y147.633 E23.35455
G1 X152.505 Y148.526 E23.38458
G1 X152.294 Y149.405 E23.41464
G1 X152.007 Y150.261 E23.44467
G1 X151.645 Y151.088 E23.4747
G1 X151.211 Y151.88 E23.50474
G1 X150.709 Y152.631 E23.53478
G1 X150.143 Y153.334 E23.5648
G1 X149.516 Y153.985 E23.59486
G1 X148.835 Y154.577 E23.62487
G1 X148.104 Y155.107 E23.65491
G1 X147.328 Y155.57 E23.68496
G1 X146.515 Y155.963 E23.71499
G1 X145.67 Y156.283 E23.74505
G1 X144.801 Y156.526 E23.77506
G1 X143.913 Y156.691 E23.8051
G1 X142.777 Y156.787 E23.84302
G1 X142.17 Y156.8 E23.86321
G1 X93.061 Y156.799 E25.49658
G1 X92.363 Y156.789 E25.5198
G1 X91.461 Y156.736 E25.54985
G1 X90.568 Y156.604 E25.57988
G1 X89.69 Y156.393 E25.60991
G1 X88.834 Y156.105 E25.63995
G1 X88.007 Y155.743 E25.66998
G1 X87.215 Y155.308 E25.70003
G1 X86.464 Y154.806 E25.73007
G1 X85.761 Y154.239 E25.76011
G1 X85.111 Y153.612 E25.79015
G1 X84.519 Y152.93 E25.82019
G1 X83.989 Y152.199 E25.85022
G1 X83.527 Y151.423 E25.88026
G1 X83.134 Y150.61 E25.91029
G1 X82.816 Y149.765 E25.94032
G1 X82.573 Y148.895 E25.97036
G1 X82.408 Y148.007 E26.00041
G1 X82.313 Y146.866 E26.03849
G1 X82.3 Y146.258 E26.05871
G1 X82.301 Y88.921 E27.96575
G1 X82.311 Y88.256 E27.98787
G1 X82.365 Y87.354 E28.01792
G1 X82.498 Y86.461 E28.04795
G1 X82.709 Y85.583 E28.07799
G1 X82.998 Y84.727 E28.10804
G1 X83.361 Y83.9 E28.13808
G1 X83.795 Y83.109 E28.16808
G1 X84.298 Y82.358 E28.19815
G1 X84.866 Y81.656 E28.22818
G1 F2700 E23.22818
;MESH:codex-sketch-to-code-base.stl
G0 F6000 X91.835 Y88.83
G0 X117.5 Y146
;TYPE:WALL-INNER
G1 F2700 E28.22818
G1 F1200 X141.9 Y146 E29.03973
G1 X141.9 Y89 E30.93556
G1 X93.1 Y89 E32.55865
G1 X93.1 Y146 E34.45448
G1 X117.5 Y146 E35.26603
G0 F6000 X117.5 Y146.4
;TYPE:WALL-OUTER
G1 F1200 X142.3 Y146.4 E36.09088
G1 X142.3 Y88.6 E38.01331
G1 X92.7 Y88.6 E39.66302
G1 X92.7 Y146.4 E41.58545
G1 X117.5 Y146.4 E42.4103
G0 F6000 X117.5 Y145.64
;TYPE:SKIN
G1 F1200 X93.46 Y145.64 E43.20988
G1 X93.46 Y89.36 E45.08176
G1 X141.54 Y89.36 E46.68091
G1 X141.54 Y145.64 E48.55279
G1 X117.5 Y145.64 E49.35236
G1 F2700 E44.35236
G0 F6000 X117.5 Y145.9
G0 X93.962 Y145.9
G0 X93.962 Y145.44
G1 F2700 E49.35236
G1 F1200 X93.66 Y145.137 E49.36659
G0 F6000 X93.66 Y144.572
G1 F1200 X94.528 Y145.44 E49.40742
G0 F6000 X95.094 Y145.44
G1 F1200 X93.66 Y144.006 E49.47487
G0 F6000 X93.66 Y143.44
G1 F1200 X95.66 Y145.44 E49.56894
G0 F6000 X96.225 Y145.44
G1 F1200 X93.66 Y142.874 E49.68961
G0 F6000 X93.66 Y142.309
G1 F1200 X96.791 Y145.44 E49.83689
G0 F6000 X97.357 Y145.44
G1 F1200 X93.66 Y141.743 E50.01078
G0 F6000 X93.66 Y141.177
G1 F1200 X97.922 Y145.44 E50.21128
G0 F6000 X98.488 Y145.44
G1 F1200 X93.66 Y140.612 E50.43837
G0 F6000 X93.66 Y140.046
G1 F1200 X99.054 Y145.44 E50.69209
G0 F6000 X99.619 Y145.44
G1 F1200 X93.66 Y139.48 E50.97241
G0 F6000 X93.66 Y138.915
G1 F1200 X100.185 Y145.44 E51.27932
G0 F6000 X100.751 Y145.44
G1 F1200 X93.66 Y138.349 E51.61286
G0 F6000 X93.66 Y137.783
G1 F1200 X101.316 Y145.44 E51.973
G0 F6000 X101.882 Y145.44
G1 F1200 X93.66 Y137.218 E52.35974
G0 F6000 X93.66 Y136.652
G1 F1200 X102.448 Y145.44 E52.7731
G0 F6000 X103.013 Y145.44
G1 F1200 X93.66 Y136.086 E53.21306
G0 F6000 X93.66 Y135.521
G1 F1200 X103.579 Y145.44 E53.67962
G0 F6000 X104.145 Y145.44
G1 F1200 X93.66 Y134.955 E54.1728
G0 F6000 X93.66 Y134.389
G1 F1200 X104.71 Y145.44 E54.69258
G0 F6000 X105.276 Y145.44
G1 F1200 X93.66 Y133.823 E55.23898
G0 F6000 X93.66 Y133.258
G1 F1200 X105.842 Y145.44 E55.81199
G0 F6000 X106.408 Y145.44
G1 F1200 X93.66 Y132.692 E56.41162
G0 F6000 X93.66 Y132.126
G1 F1200 X106.973 Y145.44 E57.03784
G0 F6000 X107.539 Y145.44
G1 F1200 X93.66 Y131.561 E57.69067
G0 F6000 X93.66 Y130.995
G1 F1200 X108.105 Y145.44 E58.37012
G0 F6000 X108.67 Y145.44
G1 F1200 X93.66 Y130.429 E59.07616
G0 F6000 X93.66 Y129.864
G1 F1200 X109.236 Y145.44 E59.80881
G0 F6000 X109.802 Y145.44
G1 F1200 X93.66 Y129.298 E60.56808
G0 F6000 X93.66 Y128.732
G1 F1200 X110.367 Y145.44 E61.35395
G0 F6000 X110.933 Y145.44
G1 F1200 X93.66 Y128.167 E62.16642
G0 F6000 X93.66 Y127.601
G1 F1200 X111.499 Y145.44 E63.00551
G0 F6000 X112.064 Y145.44
G1 F1200 X93.66 Y127.035 E63.8712
G0 F6000 X93.66 Y126.47
G1 F1200 X112.63 Y145.44 E64.76349
G0 F6000 X113.196 Y145.44
G1 F1200 X93.66 Y125.904 E65.68241
G0 F6000 X93.66 Y125.338
G1 F1200 X113.761 Y145.44 E66.62792
G0 F6000 X114.327 Y145.44
G1 F1200 X93.66 Y124.773 E67.60003
G0 F6000 X93.66 Y124.207
G1 F1200 X114.893 Y145.44 E68.59877
G0 F6000 X115.459 Y145.44
G1 F1200 X93.66 Y123.641 E69.62413
G0 F6000 X93.66 Y123.075
G1 F1200 X116.024 Y145.44 E70.67608
G0 F6000 X116.59 Y145.44
G1 F1200 X93.66 Y122.51 E71.75464
G0 F6000 X93.66 Y121.944
G1 F1200 X117.156 Y145.44 E72.85982
G0 F6000 X117.721 Y145.44
G1 F1200 X93.66 Y121.378 E73.9916
G0 F6000 X93.66 Y120.813
G1 F1200 X118.287 Y145.44 E75.14998
G0 F6000 X118.853 Y145.44
G1 F1200 X93.66 Y120.247 E76.33498
G0 F6000 X93.66 Y119.681
G1 F1200 X119.418 Y145.44 E77.54658
G0 F6000 X119.984 Y145.44
G1 F1200 X93.66 Y119.116 E78.78478
G0 F6000 X93.66 Y118.55
G1 F1200 X120.55 Y145.44 E80.0496
G0 F6000 X121.115 Y145.44
G1 F1200 X93.66 Y117.984 E81.34103
G0 F6000 X93.66 Y117.419
G1 F1200 X121.681 Y145.44 E82.65905
G0 F6000 X122.247 Y145.44
G1 F1200 X93.66 Y116.853 E84.00369
G0 F6000 X93.66 Y116.287
G1 F1200 X122.812 Y145.44 E85.37494
G0 F6000 X123.378 Y145.44
G1 F1200 X93.66 Y115.722 E86.77278
G0 F6000 X93.66 Y115.156
G1 F1200 X123.944 Y145.44 E88.19725
G0 F6000 X124.509 Y145.44
G1 F1200 X93.66 Y114.59 E89.64831
G0 F6000 X93.66 Y114.025
G1 F1200 X125.075 Y145.44 E91.12598
G0 F6000 X125.641 Y145.44
G1 F1200 X93.66 Y113.459 E92.63027
G0 F6000 X93.66 Y112.893
G1 F1200 X126.207 Y145.44 E94.16118
G0 F6000 X126.772 Y145.44
G1 F1200 X93.66 Y112.327 E95.71869
G0 F6000 X93.66 Y111.762
G1 F1200 X127.338 Y145.44 E97.3028
G0 F6000 X127.904 Y145.44
G1 F1200 X93.66 Y111.196 E98.91353
G0 F6000 X93.66 Y110.63
G1 F1200 X128.469 Y145.44 E100.55086
G0 F6000 X129.035 Y145.44
G1 F1200 X93.66 Y110.065 E102.21479
G0 F6000 X93.66 Y109.499
G1 F1200 X129.601 Y145.44 E103.90535
G0 F6000 X130.166 Y145.44
G1 F1200 X93.66 Y108.933 E105.6225
G0 F6000 X93.66 Y108.368
G1 F1200 X130.732 Y145.44 E107.36626
G0 F6000 X131.298 Y145.44
G1 F1200 X93.66 Y107.802 E109.13663
G0 F6000 X93.66 Y107.236
G1 F1200 X131.863 Y145.44 E110.93361
G0 F6000 X132.429 Y145.44
G1 F1200 X93.66 Y106.671 E112.75718
G0 F6000 X93.66 Y106.105
G1 F1200 X132.995 Y145.44 E114.60738
G0 F6000 X133.56 Y145.44
G1 F1200 X93.66 Y105.539 E116.48418
G0 F6000 X93.66 Y104.974
G1 F1200 X134.126 Y145.44 E118.38757
G0 F6000 X134.692 Y145.44
G1 F1200 X93.66 Y104.408 E120.31759
G0 F6000 X93.66 Y103.842
G1 F1200 X135.258 Y145.44 E122.27424
G0 F6000 X135.823 Y145.44
G1 F1200 X93.66 Y103.276 E124.25748
G0 F6000 X93.66 Y102.711
G1 F1200 X136.389 Y145.44 E126.26732
G0 F6000 X136.955 Y145.44
G1 F1200 X93.66 Y102.145 E128.30378
G0 F6000 X93.66 Y101.579
G1 F1200 X137.52 Y145.44 E130.36685
G0 F6000 X138.086 Y145.44
G1 F1200 X93.66 Y101.014 E132.45651
G0 F6000 X93.66 Y100.448
G1 F1200 X138.652 Y145.44 E134.57279
G0 F6000 X139.217 Y145.44
G1 F1200 X93.66 Y99.882 E136.71568
G0 F6000 X93.66 Y99.317
G1 F1200 X139.783 Y145.44 E138.88516
G0 F6000 X140.349 Y145.44
G1 F1200 X93.66 Y98.751 E141.08127
G0 F6000 X93.66 Y98.185
G1 F1200 X140.914 Y145.44 E143.30398
G0 F6000 X141.34 Y145.3
G1 F1200 X93.66 Y97.62 E145.5467
G0 F6000 X93.66 Y97.054
G1 F1200 X141.34 Y144.734 E147.78942
G0 F6000 X141.34 Y144.168
G1 F1200 X93.66 Y96.488 E150.03214
G0 F6000 X93.66 Y95.923
G1 F1200 X141.34 Y143.603 E152.27486
G0 F6000 X141.34 Y143.037
G1 F1200 X93.66 Y95.357 E154.51758
G0 F6000 X93.66 Y94.791
G1 F1200 X141.34 Y142.471 E156.7603
G0 F6000 X141.34 Y141.906
G1 F1200 X93.66 Y94.226 E159.00303
G0 F6000 X93.66 Y93.66
G1 F1200 X141.34 Y141.34 E161.24575
G0 F6000 X141.34 Y140.774
G1 F1200 X93.66 Y93.094 E163.48847
G0 F6000 X93.66 Y92.528
G1 F1200 X141.34 Y140.209 E165.73121
G0 F6000 X141.34 Y139.643
G1 F1200 X93.66 Y91.963 E167.97393
G0 F6000 X93.66 Y91.397
G1 F1200 X141.34 Y139.077 E170.21665
G0 F6000 X141.34 Y138.512
G1 F1200 X93.66 Y90.831 E172.4594
G0 F6000 X93.66 Y90.266
G1 F1200 X141.34 Y137.946 E174.70212
G0 F6000 X141.34 Y137.38
G1 F1200 X93.66 Y89.7 E176.94484
G0 F6000 X94.086 Y89.56
G1 F1200 X141.34 Y136.815 E179.16755
G0 F6000 X141.34 Y136.249
G1 F1200 X94.651 Y89.56 E181.36365
G0 F6000 X95.217 Y89.56
G1 F1200 X141.34 Y135.683 E183.53314
G0 F6000 X141.34 Y135.117
G1 F1200 X95.783 Y89.56 E185.676
G0 F6000 X96.348 Y89.56
G1 F1200 X141.34 Y134.552 E187.79229
G0 F6000 X141.34 Y133.986
G1 F1200 X96.914 Y89.56 E189.88195
G0 F6000 X97.48 Y89.56
G1 F1200 X141.34 Y133.42 E191.94499
G0 F6000 X141.34 Y132.855
G1 F1200 X98.045 Y89.56 E193.98145
G0 F6000 X98.611 Y89.56
G1 F1200 X141.34 Y132.289 E195.99129
G0 F6000 X141.34 Y131.723
G1 F1200 X99.177 Y89.56 E197.97451
G0 F6000 X99.742 Y89.56
G1 F1200 X141.34 Y131.158 E199.93116
G0 F6000 X141.34 Y130.592
G1 F1200 X100.308 Y89.56 E201.86117
G0 F6000 X100.874 Y89.56
G1 F1200 X141.34 Y130.026 E203.76457
G0 F6000 X141.34 Y129.461
G1 F1200 X101.439 Y89.56 E205.64139
G0 F6000 X102.005 Y89.56
G1 F1200 X141.34 Y128.895 E207.49159
G0 F6000 X141.34 Y128.329
G1 F1200 X102.571 Y89.56 E209.31516
G0 F6000 X103.136 Y89.56
G1 F1200 X141.34 Y127.764 E211.11216
G0 F6000 X141.34 Y127.198
G1 F1200 X103.702 Y89.56 E212.88254
G0 F6000 X104.268 Y89.56
G1 F1200 X141.34 Y126.632 E214.62629
G0 F6000 X141.34 Y126.067
G1 F1200 X104.834 Y89.56 E216.34345
G0 F6000 X105.399 Y89.56
G1 F1200 X141.34 Y125.501 E218.034
G0 F6000 X141.34 Y124.935
