;FLAVOR:Marlin
;TIME:5844
;Filament used: 4.56069m
;Layer height: 0.2
;MINX:94.515
;MINY:94.515
;MINZ:0.2
;MAXX:140.484
;MAXY:140.484
;MAXZ:78
;TARGET_MACHINE.NAME:Creality Ender-3
;Generated with Cura_SteamEngine 5.12.0
M140 S60
M105
M190 S60
M104 S215
M105
M109 S215
; Ender 3 Custom Start G-code
G92 E0 ; Reset Extruder
G28 ; Home all axes
G1 Z2.0 F3000 ; Move Z Axis up little to prevent scratching of Heat Bed
G1 X0.1 Y20 Z0.3 F5000.0 ; Move to start position
G1 X0.1 Y200.0 Z0.3 F1500.0 E15 ; Draw the first line
G1 X0.4 Y200.0 Z0.3 F5000.0 ; Move to side a little
G1 X0.4 Y20 Z0.3 F1500.0 E30 ; Draw the second line
G92 E0 ; Reset Extruder
G1 Z2.0 F3000 ; Move Z Axis up little to prevent scratching of Heat Bed
G1 X5 Y20 Z0.3 F5000.0 ; Move over to prevent blob squish
M82 ;absolute extrusion mode
G92 E0
G92 E0
G1 F2700 E-5
;LAYER_COUNT:390
;LAYER:0
M107
G0 F6000 X101.007 Y101.489 Z0.2
;TYPE:SKIRT
G1 F2700 E0
G1 F1200 X101.739 Y100.769 E0.03415
G1 X102.019 Y100.508 E0.04688
G1 X102.9 Y99.748 E0.08558
G1 X103.233 Y99.477 E0.09986
G1 X104.081 Y98.84 E0.13514
G1 X104.649 Y98.445 E0.15815
G1 X105.364 Y97.983 E0.18646
G1 X105.964 Y97.621 E0.20977
G1 X106.657 Y97.233 E0.23618
G1 X107.048 Y97.026 E0.2509
G1 X107.96 Y96.587 E0.28456
G1 X108.598 Y96.31 E0.3077
G1 X109.626 Y95.903 E0.34447
G1 X110.094 Y95.74 E0.36095
G1 X110.821 Y95.506 E0.38635
G1 X111.477 Y95.319 E0.40904
G1 X112.279 Y95.117 E0.43655
G1 X112.961 Y94.968 E0.45977
G1 X113.74 Y94.826 E0.4861
G1 X114.459 Y94.718 E0.51029
G1 X115.226 Y94.627 E0.53598
G1 X115.892 Y94.57 E0.55821
G1 X116.719 Y94.528 E0.58575
G1 X117.273 Y94.515 E0.60418
G1 X118.256 Y94.527 E0.63688
G1 X118.965 Y94.561 E0.66049
G1 X119.728 Y94.623 E0.68595
G1 X120.22 Y94.675 E0.7024
G1 X121.236 Y94.821 E0.73654
G1 X121.928 Y94.946 E0.75993
G1 X122.692 Y95.11 E0.78592
G1 X123.375 Y95.28 E0.80933
G1 X124.519 Y95.61 E0.84893
G1 X125.505 Y95.954 E0.88366
G1 X126.15 Y96.206 E0.9067
G1 X127.016 Y96.578 E0.93804
G1 X127.6 Y96.852 E0.9595
G1 X128.63 Y97.386 E0.99809
G1 X129.608 Y97.962 E1.03584
G1 X130.185 Y98.333 E1.05866
G1 X130.899 Y98.825 E1.0875
G1 X131.468 Y99.247 E1.11106
G1 X132.088 Y99.737 E1.13734
G1 X132.511 Y100.089 E1.15564
G1 X133.456 Y100.951 E1.19819
G1 X134.378 Y101.893 E1.24203
G1 X134.737 Y102.297 E1.26
G1 X135.477 Y103.172 E1.29812
G1 X136.175 Y104.102 E1.33679
G1 X136.576 Y104.678 E1.36014
G1 X137.022 Y105.369 E1.38749
G1 X137.368 Y105.94 E1.4097
G1 X137.744 Y106.602 E1.43502
G1 X138.105 Y107.316 E1.46163
G1 X138.416 Y107.968 E1.48566
G1 X138.694 Y108.607 E1.50883
G1 X139.097 Y109.626 E1.54528
G1 X139.26 Y110.095 E1.56179
G1 X139.492 Y110.819 E1.58708
G1 X139.68 Y111.471 E1.60965
G1 X139.882 Y112.272 E1.63712
G1 X140.033 Y112.975 E1.66104
G1 X140.281 Y114.448 E1.71072
G1 X140.371 Y115.217 E1.73647
G1 X140.425 Y115.798 E1.75588
G1 X140.476 Y116.724 E1.78673
G1 X140.484 Y117.415 E1.80971
G1 X140.473 Y118.252 E1.83755
G1 X140.441 Y118.932 E1.86019
G1 X140.33 Y120.19 E1.9022
G1 X140.184 Y121.213 E1.93657
G1 X140.088 Y121.772 E1.95543
G1 X139.96 Y122.41 E1.97707
G1 X139.728 Y123.35 E2.00928
G1 X139.459 Y124.297 E2.04202
G1 X139.277 Y124.857 E2.06161
G1 X139.027 Y125.558 E2.08636
G1 X138.772 Y126.202 E2.1094
G1 X138.423 Y127.013 E2.13876
G1 X138.167 Y127.57 E2.15915
G1 X137.917 Y128.071 E2.17777
G1 X137.593 Y128.667 E2.20034
G1 X137.057 Y129.577 E2.23546
G1 X136.665 Y130.186 E2.25955
G1 X136.163 Y130.916 E2.28902
G1 X135.752 Y131.471 E2.31199
G1 X135.279 Y132.068 E2.33732
G1 X134.824 Y132.606 E2.36076
G1 X134.013 Y133.492 E2.40071
G1 X133.029 Y134.449 E2.44636
G1 X132.104 Y135.248 E2.48701
G1 X131.767 Y135.523 E2.50148
G1 X130.919 Y136.16 E2.53676
G1 X130.351 Y136.555 E2.55977
G1 X129.636 Y137.017 E2.58808
G1 X129.036 Y137.379 E2.61139
G1 X128.343 Y137.767 E2.6378
G1 X127.952 Y137.974 E2.65252
G1 X127.04 Y138.413 E2.68618
G1 X126.402 Y138.69 E2.70932
G1 X125.374 Y139.097 E2.74609
G1 X124.906 Y139.26 E2.76257
G1 X124.179 Y139.494 E2.78798
G1 X123.523 Y139.681 E2.81066
G1 X122.721 Y139.883 E2.83817
G1 X122.038 Y140.032 E2.86142
G1 X121.238 Y140.176 E2.88846
G1 X120.532 Y140.285 E2.91222
G1 X119.773 Y140.368 E2.93761
G1 X119.081 Y140.43 E2.96072
G1 X118.272 Y140.472 E2.98766
G1 X117.59 Y140.484 E3.01035
G1 X116.744 Y140.473 E3.03849
G1 X116.035 Y140.439 E3.0621
G1 X115.272 Y140.377 E3.08756
G1 X114.78 Y140.325 E3.10402
G1 X113.791 Y140.183 E3.13725
G1 X113.718 Y140.163 E3.13977
G1 X113.072 Y140.054 E3.16156
G1 X112.308 Y139.89 E3.18755
G1 X111.625 Y139.72 E3.21096
G1 X110.481 Y139.39 E3.25056
G1 X109.495 Y139.046 E3.28529
G1 X108.85 Y138.794 E3.30832
G1 X107.984 Y138.422 E3.33967
G1 X107.4 Y138.148 E3.36112
G1 X106.37 Y137.614 E3.39971
G1 X105.392 Y137.038 E3.43746
G1 X104.815 Y136.667 E3.46028
G1 X104.101 Y136.175 E3.48912
G1 X103.531 Y135.753 E3.51271
G1 X102.9 Y135.252 E3.53951
G1 X102.434 Y134.848 E3.56002
G1 X102.385 Y134.816 E3.56197
G1 X101.59 Y134.089 E3.5978
G1 X101.114 Y133.619 E3.62005
G1 X100.451 Y132.921 E3.65206
G1 X99.76 Y132.116 E3.68735
G1 X99.323 Y131.569 E3.71064
G1 X98.825 Y130.898 E3.73843
G1 X98.424 Y130.322 E3.76177
G1 X97.98 Y129.636 E3.78895
G1 X97.738 Y129.241 E3.80436
G1 X97.062 Y128.021 E3.85075
G1 X96.585 Y127.035 E3.88718
G1 X96.317 Y126.422 E3.90943
G1 X95.827 Y125.17 E3.95415
G1 X95.671 Y124.707 E3.9704
G1 X95.403 Y123.832 E4.00083
G1 X95.113 Y122.702 E4.03964
G1 X94.939 Y121.922 E4.06622
G1 X94.838 Y121.349 E4.08557
G1 X94.698 Y120.424 E4.11669
G1 X94.616 Y119.709 E4.14062
G1 X94.57 Y119.081 E4.16157
G1 X94.528 Y118.279 E4.18828
G1 X94.515 Y117.726 E4.20667
G1 X94.528 Y116.715 E4.2403
G1 X94.562 Y116.015 E4.26361
G1 X94.647 Y115.023 E4.29673
G1 X94.767 Y114.061 E4.32897
G1 X94.946 Y113.071 E4.36243
G1 X95.101 Y112.35 E4.38696
G1 X95.263 Y111.697 E4.40934
G1 X95.517 Y110.796 E4.44047
G1 X95.735 Y110.109 E4.46445
G1 X95.975 Y109.44 E4.48809
G1 X96.226 Y108.802 E4.51089
G1 X96.575 Y107.99 E4.54029
G1 X96.877 Y107.35 E4.56382
G1 X97.406 Y106.335 E4.60189
G1 X97.955 Y105.404 E4.63784
G1 X98.328 Y104.823 E4.6608
G1 X98.834 Y104.088 E4.69048
G1 X99.248 Y103.529 E4.71362
G1 X99.721 Y102.932 E4.73895
G1 X100.176 Y102.394 E4.76239
G1 X101.007 Y101.489 E4.80325
G0 F6000 X101.287 Y101.774
G1 F1200 X102.012 Y101.061 E4.83707
G1 X102.28 Y100.811 E4.84926
G1 X103.153 Y100.058 E4.88761
G1 X103.473 Y99.797 E4.90134
G1 X104.309 Y99.168 E4.93614
G1 X104.866 Y98.781 E4.9587
G1 X105.571 Y98.325 E4.98662
G1 X106.159 Y97.97 E5.00947
G1 X106.844 Y97.587 E5.03557
G1 X107.235 Y97.38 E5.05029
G1 X108.12 Y96.954 E5.08295
G1 X108.745 Y96.682 E5.10563
G1 X109.757 Y96.281 E5.14183
G1 X110.217 Y96.121 E5.15803
G1 X110.931 Y95.891 E5.18298
G1 X111.575 Y95.707 E5.20526
G1 X112.364 Y95.508 E5.23232
G1 X113.033 Y95.362 E5.25509
G1 X113.812 Y95.22 E5.28143
G1 X114.506 Y95.115 E5.30478
G1 X115.26 Y95.026 E5.33003
G1 X115.926 Y94.969 E5.35226
G1 X116.729 Y94.928 E5.379
G1 X117.268 Y94.915 E5.39694
G1 X118.237 Y94.927 E5.42917
G1 X118.933 Y94.96 E5.45234
G1 X119.686 Y95.021 E5.47747
G1 X120.163 Y95.071 E5.49342
G1 X121.165 Y95.215 E5.52709
G1 X121.844 Y95.337 E5.55004
G1 X122.596 Y95.498 E5.57561
G1 X123.264 Y95.664 E5.59851
G1 X124.388 Y95.988 E5.63741
G1 X125.359 Y96.326 E5.67161
G1 X125.992 Y96.574 E5.69422
G1 X126.858 Y96.946 E5.72557
G1 X127.416 Y97.207 E5.74606
G1 X128.427 Y97.731 E5.78393
G1 X129.392 Y98.299 E5.82118
G1 X129.958 Y98.662 E5.84354
G1 X130.661 Y99.146 E5.87193
G1 X131.22 Y99.56 E5.89506
G1 X131.832 Y100.045 E5.92104
G1 X132.241 Y100.385 E5.93873
G1 X133.186 Y101.247 E5.98127
G1 X134.079 Y102.159 E6.02372
G1 X134.432 Y102.555 E6.04137
G1 X135.157 Y103.412 E6.0787
G1 X135.847 Y104.33 E6.1169
G1 X136.24 Y104.895 E6.13979
G1 X136.68 Y105.576 E6.16676
G1 X137.02 Y106.138 E6.1886
G1 X137.387 Y106.783 E6.21328
G1 X137.744 Y107.488 E6.23957
G1 X138.049 Y108.128 E6.26315
G1 X138.322 Y108.754 E6.28586
G1 X138.719 Y109.757 E6.32174
G1 X138.879 Y110.217 E6.33794
G1 X139.108 Y110.93 E6.36285
G1 X139.292 Y111.569 E6.38496
G1 X139.491 Y112.356 E6.41196
G1 X139.639 Y113.041 E6.43527
G1 X139.884 Y114.495 E6.48431
G1 X139.973 Y115.254 E6.50973
G1 X140.026 Y115.82 E6.52864
G1 X140.076 Y116.729 E6.55892
G1 X140.084 Y117.41 E6.58157
G1 X140.073 Y118.233 E6.60895
G1 X140.041 Y118.913 E6.63159
G1 X139.934 Y120.134 E6.67235
G1 X139.79 Y121.145 E6.70632
G1 X139.694 Y121.704 E6.72518
G1 X139.572 Y122.314 E6.74587
G1 X139.343 Y123.241 E6.77763
G1 X139.078 Y124.174 E6.80989
G1 X138.9 Y124.723 E6.82909
G1 X138.655 Y125.411 E6.85338
G1 X138.405 Y126.044 E6.87602
G1 X138.059 Y126.846 E6.90507
G1 X137.809 Y127.391 E6.92501
G1 X137.565 Y127.88 E6.94319
G1 X137.248 Y128.464 E6.96529
G1 X136.712 Y129.374 E7.00041
G1 X136.336 Y129.959 E7.02354
G1 X135.841 Y130.678 E7.05258
G1 X135.438 Y131.223 E7.07512
G1 X134.974 Y131.81 E7.10001
G1 X134.529 Y132.336 E7.12292
G1 X133.734 Y133.205 E7.1621
G1 X132.75 Y134.162 E7.20775
G1 X131.851 Y134.938 E7.24725
G1 X131.527 Y135.203 E7.26117
G1 X130.691 Y135.832 E7.29597
G1 X130.134 Y136.219 E7.31853
G1 X129.429 Y136.675 E7.34645
G1 X128.841 Y137.03 E7.3693
G1 X128.156 Y137.413 E7.3954
G1 X127.765 Y137.62 E7.41012
G1 X126.88 Y138.046 E7.44278
G1 X126.255 Y138.318 E7.46545
G1 X125.243 Y138.719 E7.50166
G1 X124.783 Y138.879 E7.51786
G1 X124.069 Y139.109 E7.54281
G1 X123.425 Y139.293 E7.56508
G1 X122.636 Y139.492 E7.59215
G1 X121.967 Y139.638 E7.61492
G1 X121.177 Y139.781 E7.64163
G1 X120.488 Y139.887 E7.66481
G1 X119.737 Y139.97 E7.68994
G1 X119.06 Y140.031 E7.71255
G1 X118.265 Y140.072 E7.73903
G1 X117.595 Y140.084 E7.76131
G1 X116.763 Y140.073 E7.78899
G1 X116.067 Y140.04 E7.81216
G1 X115.314 Y139.979 E7.83729
G1 X114.837 Y139.929 E7.85324
G1 X113.848 Y139.787 E7.88648
G1 X113.813 Y139.773 E7.88773
G1 X113.156 Y139.663 E7.90988
G1 X112.404 Y139.502 E7.93546
G1 X111.736 Y139.336 E7.95836
G1 X110.612 Y139.012 E7.99726
G1 X109.641 Y138.674 E8.03146
G1 X109.008 Y138.426 E8.05407
G1 X108.142 Y138.054 E8.08542
G1 X107.584 Y137.793 E8.10591
G1 X106.573 Y137.269 E8.14378
G1 X105.608 Y136.701 E8.18103
G1 X105.042 Y136.338 E8.20339
G1 X104.339 Y135.854 E8.23178
G1 X103.78 Y135.44 E8.25491
G1 X103.162 Y134.95 E8.28115
G1 X102.68 Y134.532 E8.30237
G1 X102.655 Y134.521 E8.30327
G1 X101.871 Y133.805 E8.33859
G1 X101.404 Y133.343 E8.36044
G1 X100.755 Y132.66 E8.39177
G1 X100.064 Y131.855 E8.42706
G1 X99.644 Y131.33 E8.44942
G1 X99.153 Y130.67 E8.47678
G1 X98.76 Y130.105 E8.49967
G1 X98.321 Y129.427 E8.52654
G1 X98.088 Y129.047 E8.54136
G1 X97.422 Y127.847 E8.58701
G1 X96.952 Y126.875 E8.62292
G1 X96.684 Y126.262 E8.64517
G1 X96.206 Y125.042 E8.68875
G1 X96.053 Y124.59 E8.70462
G1 X95.79 Y123.733 E8.73444
G1 X95.503 Y122.615 E8.77283
G1 X95.333 Y121.852 E8.79883
G1 X95.233 Y121.289 E8.81785
G1 X95.095 Y120.379 E8.84846
G1 X95.015 Y119.679 E8.87189
G1 X94.969 Y119.06 E8.89254
G1 X94.928 Y118.269 E8.91888
G1 X94.915 Y117.731 E8.93678
G1 X94.928 Y116.734 E8.96995
G1 X94.961 Y116.049 E8.99276
G1 X95.044 Y115.072 E9.02537
G1 X95.161 Y114.132 E9.05687
G1 X95.337 Y113.155 E9.08989
G1 X95.489 Y112.446 E9.11401
G1 X95.648 Y111.805 E9.13598
G1 X95.898 Y110.917 E9.16666
G1 X96.112 Y110.244 E9.19015
G1 X96.347 Y109.586 E9.21339
G1 X96.593 Y108.96 E9.23576
G1 X96.937 Y108.161 E9.26469
G1 X97.232 Y107.535 E9.28771
G1 X97.751 Y106.538 E9.32509
G1 X98.292 Y105.62 E9.36053
G1 X98.658 Y105.05 E9.38306
G1 X99.156 Y104.326 E9.41229
G1 X99.562 Y103.777 E9.435
G1 X100.026 Y103.19 E9.45989
G1 X100.471 Y102.664 E9.4828
G1 X101.287 Y101.774 E9.52296
G0 F6000 X101.567 Y102.059
G1 F1200 X102.286 Y101.353 E9.55648
G1 X102.541 Y101.114 E9.5681
G1 X103.406 Y100.368 E9.60609
G1 X103.713 Y100.117 E9.61928
G1 X104.537 Y99.497 E9.65358
G1 X105.084 Y99.117 E9.67573
G1 X105.778 Y98.667 E9.70324
G1 X106.354 Y98.319 E9.72563
G1 X107.031 Y97.941 E9.75141
G1 X107.422 Y97.734 E9.76613
G1 X108.28 Y97.321 E9.7978
G1 X108.892 Y97.054 E9.82001
G1 X109.889 Y96.659 E9.85568
G1 X110.34 Y96.502 E9.87156
G1 X111.041 Y96.276 E9.89606
G1 X111.673 Y96.095 E9.91792
G1 X112.449 Y95.899 E9.94454
G1 X113.105 Y95.756 E9.96687
G1 X113.884 Y95.614 E9.99321
G1 X114.553 Y95.512 E10.01572
G1 X115.294 Y95.425 E10.04053
G1 X115.96 Y95.368 E10.06277
G1 X116.739 Y95.328 E10.08871
G1 X117.263 Y95.315 E10.10614
G1 X118.218 Y95.327 E10.13791
G1 X118.901 Y95.359 E10.16065
G1 X119.645 Y95.419 E10.18548
G1 X120.106 Y95.467 E10.20089
G1 X121.095 Y95.609 E10.23412
G1 X121.76 Y95.728 E10.25659
G1 X122.5 Y95.886 E10.28176
G1 X123.153 Y96.048 E10.30414
G1 X124.257 Y96.366 E10.34235
G1 X125.213 Y96.698 E10.37601
G1 X125.834 Y96.941 E10.39819
G1 X126.689 Y97.309 E10.42915
G1 X127.232 Y97.562 E10.44907
G1 X128.224 Y98.076 E10.48623
G1 X129.176 Y98.636 E10.52297
G1 X129.731 Y98.992 E10.5449
G1 X130.423 Y99.468 E10.57283
G1 X130.972 Y99.874 E10.59555
G1 X131.576 Y100.352 E10.62116
G1 X131.971 Y100.681 E10.63826
G1 X132.916 Y101.543 E10.6808
G1 X133.793 Y102.439 E10.72251
G1 X134.127 Y102.813 E10.73918
G1 X134.837 Y103.653 E10.77576
G1 X135.519 Y104.559 E10.81348
G1 X135.904 Y105.112 E10.83589
G1 X136.338 Y105.783 E10.86247
G1 X136.672 Y106.336 E10.88396
G1 X137.03 Y106.964 E10.908
G1 X137.383 Y107.66 E10.93396
G1 X137.682 Y108.288 E10.95709
G1 X137.95 Y108.901 E10.97934
G1 X138.341 Y109.889 E11.01468
G1 X138.498 Y110.34 E11.03057
G1 X138.724 Y111.041 E11.05507
G1 X138.904 Y111.667 E11.07673
G1 X139.1 Y112.441 E11.10329
G1 X139.245 Y113.108 E11.12599
G1 X139.487 Y114.542 E11.17436
G1 X139.575 Y115.292 E11.19947
G1 X139.627 Y115.842 E11.21785
G1 X139.676 Y116.734 E11.24756
G1 X139.684 Y117.405 E11.26988
G1 X139.673 Y118.214 E11.29679
G1 X139.641 Y118.894 E11.31943
G1 X139.538 Y120.078 E11.35896
G1 X139.396 Y121.077 E11.39252
G1 X139.302 Y121.625 E11.41101
G1 X139.182 Y122.224 E11.43133
G1 X139.09 Y122.622 E11.44492
G1 X138.958 Y123.132 E11.46244
G1 X138.698 Y124.05 E11.49418
G1 X138.523 Y124.589 E11.51302
G1 X138.283 Y125.264 E11.53685
G1 X138.038 Y125.886 E11.55909
G1 X137.696 Y126.679 E11.58781
G1 X137.451 Y127.212 E11.60732
G1 X137.213 Y127.689 E11.62505
G1 X136.903 Y128.261 E11.64669
G1 X136.375 Y129.158 E11.68131
G1 X136.007 Y129.732 E11.70399
G1 X135.519 Y130.44 E11.73259
G1 X135.124 Y130.975 E11.75471
G1 X134.668 Y131.552 E11.77917
G1 X134.234 Y132.066 E11.80154
G1 X133.455 Y132.918 E11.83994
G1 X132.488 Y133.859 E11.88482
G1 X131.597 Y134.629 E11.92398
G1 X131.287 Y134.883 E11.93731
G1 X130.463 Y135.503 E11.97161
G1 X129.916 Y135.883 E11.99376
G1 X129.222 Y136.333 E12.02127
G1 X128.646 Y136.681 E12.04366
G1 X127.969 Y137.059 E12.06945
G1 X127.578 Y137.266 E12.08416
G1 X126.72 Y137.679 E12.11583
G1 X126.108 Y137.946 E12.13804
G1 X125.111 Y138.341 E12.17371
G1 X124.66 Y138.498 E12.18959
G1 X123.959 Y138.724 E12.21409
G1 X123.327 Y138.905 E12.23595
G1 X122.551 Y139.101 E12.26257
G1 X121.895 Y139.244 E12.28491
G1 X121.116 Y139.386 E12.31124
G1 X120.444 Y139.489 E12.33385
G1 X119.701 Y139.572 E12.35872
G1 X119.04 Y139.632 E12.38079
G1 X118.258 Y139.672 E12.40684
G1 X117.6 Y139.684 E12.42873
G1 X116.782 Y139.673 E12.45594
G1 X116.099 Y139.641 E12.47868
G1 X115.355 Y139.581 E12.5035
G1 X114.894 Y139.533 E12.51892
G1 X113.905 Y139.391 E12.55215
G1 X113.906 Y139.384 E12.55239
G1 X113.24 Y139.272 E12.57485
G1 X112.5 Y139.114 E12.60002
G1 X111.847 Y138.952 E12.62239
G1 X110.743 Y138.634 E12.66061
G1 X109.787 Y138.302 E12.69426
G1 X109.166 Y138.059 E12.71644
G1 X108.311 Y137.691 E12.7474
G1 X107.768 Y137.438 E12.76733
G1 X106.776 Y136.924 E12.80449
G1 X105.824 Y136.364 E12.84122
G1 X105.269 Y136.008 E12.86315
G1 X104.577 Y135.532 E12.89109
G1 X104.028 Y135.126 E12.9138
G1 X103.424 Y134.648 E12.93942
G1 X102.93 Y134.22 E12.96116
G1 X102.925 Y134.225 E12.96139
G1 X102.152 Y133.52 E12.99619
G1 X101.694 Y133.068 E13.01759
G1 X101.059 Y132.399 E13.04827
G1 X100.368 Y131.594 E13.08356
G1 X99.965 Y131.091 E13.10499
G1 X99.481 Y130.441 E13.13195
G1 X99.096 Y129.888 E13.15436
G1 X98.662 Y129.217 E13.18094
G1 X98.438 Y128.853 E13.19515
G1 X97.782 Y127.673 E13.24006
G1 X97.319 Y126.715 E13.27545
G1 X97.051 Y126.102 E13.2977
G1 X96.585 Y124.913 E13.34017
G1 X96.435 Y124.472 E13.35567
G1 X96.177 Y123.633 E13.38486
G1 X95.893 Y122.528 E13.42281
G1 X95.727 Y121.781 E13.44826
