;FLAVOR:Marlin
;TIME:27605
;Filament used: 17.1221m
;Layer height: 0.2
;MINX:21.5
;MINY:81.5
;MINZ:0.2
;MAXX:213.5
;MAXY:153.5
;MAXZ:28.2
;TARGET_MACHINE.NAME:Creality Ender-3
;Generated with Cura_SteamEngine 5.12.0
M140 S60
M105
M190 S60
M104 S215
M105
M109 S215
; Ender 3 Custom Start G-code
G92 E0 ; Reset Extruder
G28 ; Home all axes
G1 Z2.0 F3000 ; Move Z Axis up little to prevent scratching of Heat Bed
G1 X0.1 Y20 Z0.3 F5000.0 ; Move to start position
G1 X0.1 Y200.0 Z0.3 F1500.0 E15 ; Draw the first line
G1 X0.4 Y200.0 Z0.3 F5000.0 ; Move to side a little
G1 X0.4 Y20 Z0.3 F1500.0 E30 ; Draw the second line
G92 E0 ; Reset Extruder
G1 Z2.0 F3000 ; Move Z Axis up little to prevent scratching of Heat Bed
G1 X5 Y20 Z0.3 F5000.0 ; Move over to prevent blob squish
M82 ;absolute extrusion mode
G92 E0
G92 E0
G1 F2700 E-5
;LAYER_COUNT:141
;LAYER:0
M107
G0 F6000 X29.128 Y82.042 Z0.2
;TYPE:SKIRT
G1 F2700 E0
G1 F1200 X30.032 Y81.792 E0.0312
G1 X31.034 Y81.609 E0.06507
G1 X32.205 Y81.513 E0.10415
G1 X32.812 Y81.5 E0.12435
G1 X201.804 Y81.5 E5.74504
G1 X202.684 Y81.513 E5.77431
G1 X203.656 Y81.572 E5.8067
G1 X204.619 Y81.718 E5.8391
G1 X205.566 Y81.949 E5.87152
G1 X206.454 Y82.249 E5.90269
G1 X207.346 Y82.639 E5.93507
G1 X208.229 Y83.126 E5.96861
G1 X208.98 Y83.628 E5.99866
G1 X209.795 Y84.286 E6.0335
G1 X210.493 Y84.964 E6.06586
G1 X211.129 Y85.701 E6.09824
G1 X211.699 Y86.491 E6.13064
G1 X212.161 Y87.267 E6.16068
G1 X212.615 Y88.209 E6.19546
G1 X212.944 Y89.087 E6.22664
G1 X213.213 Y90.059 E6.26019
G1 X213.39 Y91.025 E6.29285
G1 X213.485 Y92.155 E6.33057
G1 X213.5 Y92.83 E6.35302
G1 X213.499 Y141.916 E7.98563
G1 X213.487 Y142.677 E8.01095
G1 X213.429 Y143.65 E8.04337
G1 X213.283 Y144.613 E8.07576
G1 X213.052 Y145.56 E8.10818
G1 X212.739 Y146.482 E8.14057
G1 X212.347 Y147.373 E8.17294
G1 X211.895 Y148.195 E8.20414
G1 X211.333 Y149.033 E8.2377
G1 X210.743 Y149.763 E8.26892
G1 X210.04 Y150.489 E8.30253
G1 X209.304 Y151.125 E8.33489
G1 X208.514 Y151.695 E8.36729
G1 X207.738 Y152.158 E8.39734
G1 X206.798 Y152.611 E8.43205
G1 X205.885 Y152.953 E8.46447
G1 X204.947 Y153.212 E8.49684
G1 X203.981 Y153.389 E8.5295
G1 X202.845 Y153.485 E8.56742
G1 X202.17 Y153.5 E8.58988
G1 X33.049 Y153.499 E14.21487
G1 X32.316 Y153.487 E14.23925
G1 X31.344 Y153.428 E14.27164
G1 X30.381 Y153.282 E14.30403
G1 X29.434 Y153.051 E14.33645
G1 X28.546 Y152.751 E14.36763
G1 X27.654 Y152.361 E14.40001
G1 X26.771 Y151.874 E14.43355
G1 X26.02 Y151.372 E14.46359
G1 X25.205 Y150.714 E14.49843
G1 X24.507 Y150.036 E14.5308
G1 X23.871 Y149.299 E14.56317
G1 X23.301 Y148.509 E14.59558
G1 X22.839 Y147.733 E14.62561
G1 X22.385 Y146.791 E14.66039
G1 X22.056 Y145.913 E14.69158
G1 X21.787 Y144.94 E14.72515
G1 X21.61 Y143.973 E14.75785
G1 X21.514 Y142.808 E14.79673
G1 X21.5 Y142.158 E14.81835
G1 X21.501 Y93.009 E16.45306
G1 X21.513 Y92.308 E16.47638
G1 X21.573 Y91.335 E16.5088
G1 X21.72 Y90.374 E16.54113
G1 X21.951 Y89.426 E16.57359
G1 X22.253 Y88.537 E16.60482
G1 X22.66 Y87.615 E16.63834
G1 X23.131 Y86.763 E16.67072
G1 X23.676 Y85.954 E16.70316
G1 X24.267 Y85.226 E16.73435
G1 X24.969 Y84.501 E16.76791
G1 X25.679 Y83.887 E16.79913
G1 X26.498 Y83.297 E16.8327
G1 X27.337 Y82.801 E16.86512
G1 X28.151 Y82.41 E16.89516
G1 X29.128 Y82.042 E16.92988
G0 F6000 X29.235 Y82.428
G1 F1200 X30.139 Y82.178 E16.96108
G1 X31.067 Y82.008 E16.99246
G1 X32.214 Y81.913 E17.03074
G1 X32.821 Y81.9 E17.05093
G1 X201.798 Y81.9 E22.67113
G1 X202.66 Y81.912 E22.6998
G1 X203.597 Y81.968 E22.73102
G1 X204.525 Y82.107 E22.76223
G1 X205.438 Y82.328 E22.79347
G1 X206.294 Y82.616 E22.82351
G1 X207.186 Y83.006 E22.85589
G1 X208.007 Y83.459 E22.88708
G1 X208.758 Y83.961 E22.91712
G1 X209.517 Y84.573 E22.94955
G1 X210.191 Y85.226 E22.98077
G1 X210.805 Y85.935 E23.01196
G1 X211.355 Y86.696 E23.04319
G1 X211.817 Y87.472 E23.07323
G1 X212.24 Y88.349 E23.10561
G1 X212.569 Y89.227 E23.1368
G1 X212.82 Y90.132 E23.16804
G1 X212.991 Y91.059 E23.19939
G1 X213.086 Y92.189 E23.2371
G1 X213.1 Y92.83 E23.25843
G1 X213.099 Y141.91 E24.89084
G1 X213.088 Y142.654 E24.91558
G1 X213.033 Y143.591 E24.9468
G1 X212.894 Y144.519 E24.97801
G1 X212.673 Y145.432 E25.00926
G1 X212.373 Y146.321 E25.04046
G1 X211.996 Y147.18 E25.07166
G1 X211.544 Y148.002 E25.10286
G1 X211.021 Y148.782 E25.1341
G1 X210.455 Y149.485 E25.16412
G1 X209.778 Y150.187 E25.19655
G1 X209.07 Y150.801 E25.22772
G1 X208.309 Y151.351 E25.25895
G1 X207.533 Y151.814 E25.28901
G1 X206.657 Y152.237 E25.32136
G1 X205.778 Y152.568 E25.3526
G1 X204.874 Y152.819 E25.38381
G1 X203.947 Y152.99 E25.41516
G1 X202.811 Y153.086 E25.45308
G1 X202.17 Y153.1 E25.4744
G1 X33.055 Y153.099 E31.09919
G1 X32.34 Y153.088 E31.12297
G1 X31.403 Y153.032 E31.1542
G1 X30.475 Y152.893 E31.18541
G1 X29.562 Y152.672 E31.21665
G1 X28.706 Y152.384 E31.24669
G1 X27.814 Y151.994 E31.27907
G1 X26.993 Y151.541 E31.31025
G1 X26.242 Y151.039 E31.3403
G1 X25.483 Y150.427 E31.37273
G1 X24.809 Y149.774 E31.40394
G1 X24.195 Y149.065 E31.43514
G1 X23.645 Y148.304 E31.46637
G1 X23.183 Y147.528 E31.4964
G1 X22.76 Y146.651 E31.52879
G1 X22.431 Y145.773 E31.55997
G1 X22.18 Y144.868 E31.59121
G1 X22.009 Y143.94 E31.6226
G1 X21.913 Y142.775 E31.66147
G1 X21.9 Y142.158 E31.682
G1 X21.901 Y93.015 E33.3165
G1 X21.912 Y92.332 E33.33922
G1 X21.969 Y91.395 E33.37045
G1 X22.109 Y90.468 E33.40163
G1 X22.33 Y89.555 E33.43287
G1 X22.632 Y88.666 E33.4641
G1 X23.01 Y87.808 E33.49528
G1 X23.463 Y86.986 E33.5265
G1 X23.987 Y86.206 E33.55775
G1 X24.578 Y85.478 E33.58894
G1 X25.231 Y84.804 E33.62015
G1 X25.941 Y84.19 E33.65137
G1 X26.702 Y83.641 E33.68258
G1 X27.51 Y83.162 E33.71382
G1 X28.324 Y82.771 E33.74386
G1 X29.235 Y82.428 E33.77624
G0 F6000 X29.342 Y82.813
G1 F1200 X30.212 Y82.571 E33.80627
G1 X31.1 Y82.407 E33.83631
G1 X32.223 Y82.313 E33.87379
G1 X32.83 Y82.3 E33.89398
G1 X201.793 Y82.3 E39.51371
G1 X202.637 Y82.311 E39.54179
G1 X203.539 Y82.364 E39.57184
G1 X204.432 Y82.496 E39.60186
G1 X205.31 Y82.707 E39.6319
G1 X206.166 Y82.995 E39.66194
G1 X206.993 Y83.357 E39.69196
G1 X207.785 Y83.792 E39.72202
G1 X208.536 Y84.294 E39.75206
G1 X209.239 Y84.861 E39.7821
G1 X209.889 Y85.488 E39.81214
G1 X210.481 Y86.17 E39.84218
G1 X211.011 Y86.901 E39.87221
G1 X211.473 Y87.677 E39.90224
G1 X211.866 Y88.49 E39.93228
G1 X212.184 Y89.335 E39.96231
G1 X212.427 Y90.205 E39.99235
G1 X212.592 Y91.093 E40.02239
G1 X212.687 Y92.223 E40.06011
G1 X212.7 Y92.83 E40.0803
G1 X212.699 Y141.904 E41.71251
G1 X212.689 Y142.631 E41.73669
G1 X212.637 Y143.533 E41.76674
G1 X212.505 Y144.426 E41.79677
G1 X212.294 Y145.305 E41.82683
G1 X212.007 Y146.161 E41.85686
G1 X211.645 Y146.988 E41.88689
G1 X211.211 Y147.78 E41.91692
G1 X210.709 Y148.531 E41.94697
G1 X210.143 Y149.234 E41.97699
G1 X209.516 Y149.885 E42.00705
G1 X208.835 Y150.477 E42.03706
G1 X208.104 Y151.007 E42.06709
G1 X207.328 Y151.47 E42.09715
G1 X206.515 Y151.863 E42.12718
G1 X205.67 Y152.183 E42.15723
G1 X204.801 Y152.426 E42.18725
G1 X203.913 Y152.591 E42.21729
G1 X202.777 Y152.687 E42.25521
G1 X202.17 Y152.7 E42.2754
G1 X33.061 Y152.699 E47.89999
G1 X32.363 Y152.689 E47.9232
G1 X31.461 Y152.636 E47.95326
G1 X30.568 Y152.504 E47.98328
G1 X29.69 Y152.293 E48.01332
G1 X28.834 Y152.005 E48.04335
G1 X28.007 Y151.643 E48.07338
G1 X27.215 Y151.208 E48.10343
G1 X26.464 Y150.706 E48.13348
G1 X25.761 Y150.139 E48.16352
G1 X25.111 Y149.512 E48.19356
G1 X24.519 Y148.83 E48.22359
G1 X23.989 Y148.099 E48.25362
G1 X23.527 Y147.323 E48.28366
G1 X23.134 Y146.51 E48.3137
G1 X22.816 Y145.665 E48.34373
G1 X22.573 Y144.795 E48.37377
G1 X22.408 Y143.907 E48.40381
G1 X22.313 Y142.766 E48.44189
G1 X22.3 Y142.158 E48.46212
G1 X22.301 Y93.021 E50.09642
G1 X22.311 Y92.356 E50.11854
G1 X22.365 Y91.454 E50.1486
G1 X22.498 Y90.561 E50.17862
G1 X22.709 Y89.683 E50.20866
G1 X22.998 Y88.827 E50.23871
G1 X23.361 Y88 E50.26875
G1 X23.795 Y87.209 E50.29876
G1 X24.298 Y86.458 E50.32882
G1 X24.866 Y85.756 E50.35885
G1 X25.493 Y85.106 E50.38889
G1 X26.175 Y84.514 E50.41893
G1 X26.907 Y83.985 E50.44897
G1 X27.683 Y83.523 E50.479
G1 X28.497 Y83.132 E50.50904
G1 X29.342 Y82.813 E50.53908
G1 F2700 E45.53908
;MESH:codex-sketch-to-code-body.stl
G0 F6000 X32.93 Y91.835
G0 X117.5 Y141.9
;TYPE:WALL-INNER
G1 F2700 E50.53908
G1 F1200 X201.9 Y141.9 E53.34624
G1 X201.9 Y93.1 E54.96933
G1 X33.1 Y93.1 E60.58364
G1 X33.1 Y141.9 E62.20674
G1 X117.5 Y141.9 E65.01389
G0 F6000 X117.5 Y142.3
;TYPE:WALL-OUTER
G1 F1200 X202.3 Y142.3 E67.83435
G1 X202.3 Y92.7 E69.48405
G1 X32.7 Y92.7 E75.12497
G1 X32.7 Y142.3 E76.77468
G1 X117.5 Y142.3 E79.59513
G0 F6000 X117.5 Y141.54
;TYPE:SKIN
G1 F1200 X33.46 Y141.54 E82.39032
G1 X33.46 Y93.46 E83.98946
G1 X201.54 Y93.46 E89.57983
G1 X201.54 Y141.54 E91.17897
G1 X117.5 Y141.54 E93.97416
G1 F2700 E88.97416
G0 F6000 X117.5 Y141.8
G0 X33.272 Y141.728
G0 X33.2 Y141.141
G0 X33.66 Y141.141
G1 F2700 E93.97416
G1 F1200 X33.86 Y141.34 E93.98354
G0 F6000 X34.425 Y141.34
G1 F1200 X33.66 Y140.575 E94.01952
G0 F6000 X33.66 Y140.009
G1 F1200 X34.991 Y141.34 E94.08213
G0 F6000 X35.557 Y141.34
G1 F1200 X33.66 Y139.444 E94.17134
G0 F6000 X33.66 Y138.878
G1 F1200 X36.123 Y141.34 E94.28716
G0 F6000 X36.688 Y141.34
G1 F1200 X33.66 Y138.312 E94.42959
G0 F6000 X33.66 Y137.747
G1 F1200 X37.254 Y141.34 E94.59862
G0 F6000 X37.82 Y141.34
G1 F1200 X33.66 Y137.181 E94.79427
G0 F6000 X33.66 Y136.615
G1 F1200 X38.385 Y141.34 E95.01652
G0 F6000 X38.951 Y141.34
G1 F1200 X33.66 Y136.049 E95.26539
G0 F6000 X33.66 Y135.484
G1 F1200 X39.517 Y141.34 E95.54086
G0 F6000 X40.082 Y141.34
G1 F1200 X33.66 Y134.918 E95.84293
G0 F6000 X33.66 Y134.352
G1 F1200 X40.648 Y141.34 E96.17163
G0 F6000 X41.214 Y141.34
G1 F1200 X33.66 Y133.787 E96.52692
G0 F6000 X33.66 Y133.221
G1 F1200 X41.779 Y141.34 E96.90881
G0 F6000 X42.345 Y141.34
G1 F1200 X33.66 Y132.655 E97.31733
G0 F6000 X33.66 Y132.09
G1 F1200 X42.911 Y141.34 E97.75245
G0 F6000 X43.476 Y141.34
G1 F1200 X33.66 Y131.524 E98.21416
G0 F6000 X33.66 Y130.958
G1 F1200 X44.042 Y141.34 E98.7025
G0 F6000 X44.608 Y141.34
G1 F1200 X33.66 Y130.393 E99.21743
G0 F6000 X33.66 Y129.827
G1 F1200 X45.174 Y141.34 E99.75899
G0 F6000 X45.739 Y141.34
G1 F1200 X33.66 Y129.261 E100.32715
G0 F6000 X33.66 Y128.696
G1 F1200 X46.305 Y141.34 E100.92191
G0 F6000 X46.871 Y141.34
G1 F1200 X33.66 Y128.13 E101.54329
G0 F6000 X33.66 Y127.564
G1 F1200 X47.436 Y141.34 E102.19127
G0 F6000 X48.002 Y141.34
G1 F1200 X33.66 Y126.998 E102.86588
G0 F6000 X33.66 Y126.433
G1 F1200 X48.568 Y141.34 E103.56708
G0 F6000 X49.133 Y141.34
G1 F1200 X33.66 Y125.867 E104.29488
G0 F6000 X33.66 Y125.301
G1 F1200 X49.699 Y141.34 E105.04931
G0 F6000 X50.265 Y141.34
G1 F1200 X33.66 Y124.736 E105.83033
G0 F6000 X33.66 Y124.17
G1 F1200 X50.83 Y141.34 E106.63796
G0 F6000 X51.396 Y141.34
G1 F1200 X33.66 Y123.604 E107.4722
G0 F6000 X33.66 Y123.039
G1 F1200 X51.962 Y141.34 E108.33305
G0 F6000 X52.527 Y141.34
G1 F1200 X33.66 Y122.473 E109.2205
G0 F6000 X33.66 Y121.907
G1 F1200 X53.093 Y141.34 E110.13457
G0 F6000 X53.659 Y141.34
G1 F1200 X33.66 Y121.342 E111.07523
G0 F6000 X33.66 Y120.776
G1 F1200 X54.224 Y141.34 E112.0425
G0 F6000 X54.79 Y141.34
G1 F1200 X33.66 Y120.21 E113.03639
G0 F6000 X33.66 Y119.645
G1 F1200 X55.356 Y141.34 E114.05688
G0 F6000 X55.922 Y141.34
G1 F1200 X33.66 Y119.079 E115.10399
G0 F6000 X33.66 Y118.513
G1 F1200 X56.487 Y141.34 E116.17771
G0 F6000 X57.053 Y141.34
G1 F1200 X33.66 Y117.948 E117.27802
G0 F6000 X33.66 Y117.382
G1 F1200 X57.619 Y141.34 E118.40495
G0 F6000 X58.184 Y141.34
G1 F1200 X33.66 Y116.816 E119.55849
G0 F6000 X33.66 Y116.25
G1 F1200 X58.75 Y141.34 E120.73864
G0 F6000 X59.316 Y141.34
G1 F1200 X33.66 Y115.685 E121.9454
G0 F6000 X33.66 Y115.119
G1 F1200 X59.881 Y141.34 E123.17875
G0 F6000 X60.447 Y141.34
G1 F1200 X33.66 Y114.553 E124.43873
G0 F6000 X33.66 Y113.988
G1 F1200 X61.013 Y141.34 E125.72531
G0 F6000 X61.578 Y141.34
G1 F1200 X33.66 Y113.422 E127.03849
G0 F6000 X33.66 Y112.856
G1 F1200 X62.144 Y141.34 E128.37829
G0 F6000 X62.71 Y141.34
G1 F1200 X33.66 Y112.291 E129.74469
G0 F6000 X33.66 Y111.725
G1 F1200 X63.275 Y141.34 E131.13769
G0 F6000 X63.841 Y141.34
G1 F1200 X33.66 Y111.159 E132.55731
G0 F6000 X33.66 Y110.594
G1 F1200 X64.407 Y141.34 E134.00353
G0 F6000 X64.973 Y141.34
G1 F1200 X33.66 Y110.028 E135.47637
G0 F6000 X33.66 Y109.462
G1 F1200 X65.538 Y141.34 E136.97582
G0 F6000 X66.104 Y141.34
G1 F1200 X33.66 Y108.897 E138.50186
G0 F6000 X33.66 Y108.331
G1 F1200 X66.67 Y141.34 E140.05452
G0 F6000 X67.235 Y141.34
G1 F1200 X33.66 Y107.765 E141.63379
G0 F6000 X33.66 Y107.2
G1 F1200 X67.801 Y141.34 E143.23965
G0 F6000 X68.367 Y141.34
G1 F1200 X33.66 Y106.634 E144.87214
G0 F6000 X33.66 Y106.068
G1 F1200 X68.932 Y141.34 E146.53123
G0 F6000 X69.498 Y141.34
G1 F1200 X33.66 Y105.502 E148.21694
G0 F6000 X33.66 Y104.937
G1 F1200 X70.064 Y141.34 E149.92925
G0 F6000 X70.629 Y141.34
G1 F1200 X33.66 Y104.371 E151.66815
G0 F6000 X33.66 Y103.805
G1 F1200 X71.195 Y141.34 E153.43369
G0 F6000 X71.761 Y141.34
G1 F1200 X33.66 Y103.24 E155.22582
G0 F6000 X33.66 Y102.674
G1 F1200 X72.326 Y141.34 E157.04455
G0 F6000 X72.892 Y141.34
G1 F1200 X33.66 Y102.108 E158.8899
G0 F6000 X33.66 Y101.543
G1 F1200 X73.458 Y141.34 E160.76185
G0 F6000 X74.023 Y141.34
G1 F1200 X33.66 Y100.977 E162.6604
G0 F6000 X33.66 Y100.411
G1 F1200 X74.589 Y141.34 E164.58558
G0 F6000 X75.155 Y141.34
G1 F1200 X33.66 Y99.846 E166.53735
G0 F6000 X33.66 Y99.28
G1 F1200 X75.721 Y141.34 E168.51575
G0 F6000 X76.286 Y141.34
G1 F1200 X33.66 Y98.714 E170.52075
G0 F6000 X33.66 Y98.149
G1 F1200 X76.852 Y141.34 E172.55234
G0 F6000 X77.418 Y141.34
G1 F1200 X33.66 Y97.583 E174.61056
G0 F6000 X33.66 Y97.017
G1 F1200 X77.983 Y141.34 E176.69538
G0 F6000 X78.549 Y141.34
G1 F1200 X33.66 Y96.451 E178.80682
G0 F6000 X33.66 Y95.886
G1 F1200 X79.115 Y141.34 E180.94486
G0 F6000 X79.68 Y141.34
G1 F1200 X33.66 Y95.32 E183.1095
G0 F6000 X33.66 Y94.754
G1 F1200 X80.246 Y141.34 E185.30076
G0 F6000 X80.812 Y141.34
G1 F1200 X33.66 Y94.189 E187.51862
G0 F6000 X33.698 Y93.661
G1 F1200 X81.377 Y141.34 E189.7613
G0 F6000 X81.943 Y141.34
G1 F1200 X34.264 Y93.661 E192.00397
G0 F6000 X34.829 Y93.661
G1 F1200 X82.509 Y141.34 E194.24667
G0 F6000 X83.074 Y141.34
G1 F1200 X35.395 Y93.661 E196.48934
G0 F6000 X35.961 Y93.661
G1 F1200 X83.64 Y141.34 E198.73202
G0 F6000 X84.206 Y141.34
G1 F1200 X36.526 Y93.661 E200.97471
G0 F6000 X37.092 Y93.661
G1 F1200 X84.771 Y141.34 E203.21739
G0 F6000 X85.337 Y141.34
G1 F1200 X37.658 Y93.661 E205.46006
G0 F6000 X38.223 Y93.661
G1 F1200 X85.903 Y141.34 E207.70276
G0 F6000 X86.469 Y141.34
G1 F1200 X38.789 Y93.661 E209.94546
G0 F6000 X39.355 Y93.661
G1 F1200 X87.034 Y141.34 E212.18813
G0 F6000 X87.6 Y141.34
G1 F1200 X39.92 Y93.661 E214.43083
G0 F6000 X40.486 Y93.661
G1 F1200 X88.166 Y141.34 E216.67353
G0 F6000 X88.731 Y141.34
G1 F1200 X41.052 Y93.661 E218.9162
G0 F6000 X41.617 Y93.661
G1 F1200 X89.297 Y141.34 E221.1589
G0 F6000 X89.863 Y141.34
G1 F1200 X42.183 Y93.661 E223.4016
G0 F6000 X42.749 Y93.661
G1 F1200 X90.428 Y141.34 E225.64427
G0 F6000 X90.994 Y141.34
G1 F1200 X43.315 Y93.661 E227.88694
G0 F6000 X43.88 Y93.661
G1 F1200 X91.56 Y141.34 E230.12964
G0 F6000 X92.125 Y141.34
G1 F1200 X44.446 Y93.661 E232.37232
G0 F6000 X45.012 Y93.661
G1 F1200 X92.691 Y141.34 E234.61499
G0 F6000 X93.257 Y141.34
G1 F1200 X45.577 Y93.661 E236.85769
G0 F6000 X46.143 Y93.661
G1 F1200 X93.822 Y141.34 E239.10036
G0 F6000 X94.388 Y141.34
G1 F1200 X46.709 Y93.661 E241.34303
G0 F6000 X47.274 Y93.661
G1 F1200 X94.954 Y141.34 E243.58573
G0 F6000 X95.52 Y141.34
G1 F1200 X47.84 Y93.661 E245.82843
G0 F6000 X48.406 Y93.661
G1 F1200 X96.085 Y141.34 E248.0711
G0 F6000 X96.651 Y141.34
G1 F1200 X48.971 Y93.661 E250.3138
G0 F6000 X49.537 Y93.661
G1 F1200 X97.217 Y141.34 E252.5565
G0 F6000 X97.782 Y141.34
G1 F1200 X50.103 Y93.661 E254.79917
G0 F6000 X50.668 Y93.661
G1 F1200 X98.348 Y141.34 E257.04187
G0 F6000 X98.914 Y141.34
G1 F1200 X51.234 Y93.661 E259.28457
G0 F6000 X51.8 Y93.661
G1 F1200 X99.479 Y141.34 E261.52724
G0 F6000 X100.045 Y141.34
G1 F1200 X52.365 Y93.661 E263.76994
G0 F6000 X52.931 Y93.661
G1 F1200 X100.611 Y141.34 E266.01264
G0 F6000 X101.176 Y141.34
G1 F1200 X53.497 Y93.661 E268.25531
